;FLAVOR:Marlin
;TIME:14725
;Filament used: 10.7787m
;Layer height: 0.2
;MINX:31.875
;MINY:57
;MINZ:0.2
;MAXX:203.125
;MAXY:178
;MAXZ:2.2
;Generated with Cura_SteamEngine 4.7.1
M140 S70
M105
M190 S70
M104 S240
M105
M109 S240
M82 ;absolute extrusion mode
; Ender 3 Custom Start G-code
G92 E0 ; Reset Extruder
G28 ; Home all axes
G1 Z2.0 F3000 ; Move Z Axis up little to prevent scratching of Heat Bed
G1 X0.1 Y20 Z0.3 F5000.0 ; Move to start position
G1 X0.1 Y200.0 Z0.3 F1500.0 E15 ; Draw the first line
G1 X0.4 Y200.0 Z0.3 F5000.0 ; Move to side a little
G1 X0.4 Y20 Z0.3 F1500.0 E30 ; Draw the second line
G92 E0 ; Reset Extruder
G1 Z2.0 F3000 ; Move Z Axis up little to prevent scratching of Heat Bed
G1 X5 Y20 Z0.3 F5000.0 ; Move over to prevent blob squish
G92 E0
G92 E0
G1 F2700 E-5
;LAYER_COUNT:11
;LAYER:0
M107
G0 F6000 X37.287 Y58.539 Z0.2
;TYPE:SKIRT
G1 F2700 E0
G1 F900 X38.114 Y58.097 E0.03119
G1 X38.976 Y57.727 E0.06239
G1 X39.866 Y57.431 E0.09358
G1 X40.778 Y57.213 E0.12477
G1 X41.705 Y57.072 E0.15596
G1 X42.576 Y57.013 E0.18499
G1 X42.897 Y57.004 E0.19567
G1 X43.205 Y57 E0.20592
G1 X191.418 Y57 E5.1355
G1 X191.576 Y57.001 E5.14076
G1 X192.274 Y57.011 E5.16398
G1 X193.21 Y57.065 E5.19516
G1 X194.138 Y57.197 E5.22634
G1 X195.052 Y57.409 E5.25754
G1 X195.944 Y57.698 E5.28873
G1 X196.809 Y58.061 E5.31993
G1 X197.639 Y58.497 E5.35111
G1 X198.43 Y59.002 E5.38233
G1 X199.174 Y59.573 E5.41352
G1 X199.867 Y60.205 E5.44472
G1 X200.504 Y60.893 E5.4759
G1 X201.079 Y61.634 E5.5071
G1 X201.59 Y62.42 E5.53828
G1 X202.032 Y63.248 E5.56949
G1 X202.401 Y64.11 E5.60068
G1 X202.696 Y65 E5.63187
G1 X202.914 Y65.912 E5.66305
G1 X203.054 Y66.84 E5.69427
G1 X203.112 Y67.701 E5.72297
G1 X203.121 Y68.021 E5.73362
G1 X203.125 Y68.33 E5.7439
G1 X203.125 Y166.264 E9.00119
G1 X203.115 Y167.127 E9.0299
G1 X203.064 Y168.064 E9.06111
G1 X202.932 Y168.992 E9.09229
G1 X202.723 Y169.906 E9.12347
G1 X202.436 Y170.799 E9.15467
G1 X202.074 Y171.665 E9.18589
G1 X201.64 Y172.496 E9.21707
G1 X201.136 Y173.287 E9.24826
G1 X200.567 Y174.032 E9.27944
G1 X199.936 Y174.727 E9.31067
G1 X199.249 Y175.365 E9.34185
G1 X198.51 Y175.942 E9.37303
G1 X197.724 Y176.454 E9.40423
G1 X196.898 Y176.897 E9.43541
G1 X196.036 Y177.269 E9.46663
G1 X195.147 Y177.565 E9.4978
G1 X194.235 Y177.785 E9.529
G1 X193.308 Y177.926 E9.56019
G1 X192.424 Y177.987 E9.58966
G1 X192.103 Y177.996 E9.60034
G1 X191.795 Y178 E9.61059
G1 X43.582 Y178 E14.54017
G1 X42.742 Y177.99 E14.56811
G1 X41.806 Y177.938 E14.59929
G1 X40.877 Y177.806 E14.6305
G1 X39.963 Y177.596 E14.66169
G1 X39.07 Y177.309 E14.69289
G1 X38.205 Y176.946 E14.72409
G1 X37.374 Y176.512 E14.75527
G1 X36.583 Y176.008 E14.78647
G1 X35.838 Y175.438 E14.81767
G1 X35.144 Y174.807 E14.84886
G1 X34.507 Y174.12 E14.88002
G1 X33.93 Y173.38 E14.91123
G1 X33.418 Y172.594 E14.94243
G1 X32.975 Y171.767 E14.97364
G1 X32.604 Y170.906 E15.00482
G1 X32.308 Y170.016 E15.03601
G1 X32.089 Y169.104 E15.06721
G1 X31.948 Y168.177 E15.0984
G1 X31.888 Y167.288 E15.12803
G1 X31.879 Y166.955 E15.13911
G1 X31.875 Y166.658 E15.14899
G1 X31.875 Y68.674 E18.40795
G1 X31.885 Y67.86 E18.43503
G1 X31.938 Y66.924 E18.46621
G1 X32.07 Y65.995 E18.49742
G1 X32.281 Y65.081 E18.52862
G1 X32.569 Y64.189 E18.55979
G1 X32.932 Y63.324 E18.59099
G1 X33.367 Y62.493 E18.62219
G1 X33.871 Y61.703 E18.65336
G1 X34.441 Y60.958 E18.68456
G1 X35.073 Y60.264 E18.71578
G1 X35.761 Y59.627 E18.74696
G1 X36.501 Y59.051 E18.77815
G1 X37.287 Y58.539 E18.80935
G0 F6000 X37.666 Y58.782
G1 F900 X38.486 Y58.364 E18.83996
G1 X39.34 Y58.019 E18.8706
G1 X40.22 Y57.749 E18.90121
G1 X41.12 Y57.557 E18.93182
G1 X42.034 Y57.443 E18.96246
G1 X42.587 Y57.413 E18.98088
G1 X42.908 Y57.404 E18.99156
G1 X43.205 Y57.4 E19.00144
G1 X191.418 Y57.4 E23.93102
G1 X192.268 Y57.411 E23.9593
G1 X193.187 Y57.464 E23.98991
G1 X194.098 Y57.597 E24.02053
G1 X194.994 Y57.808 E24.05115
G1 X195.868 Y58.096 E24.08176
G1 X196.715 Y58.459 E24.11241
G1 X197.526 Y58.894 E24.14302
G1 X198.296 Y59.398 E24.17362
G1 X199.02 Y59.967 E24.20425
G1 X199.692 Y60.597 E24.23489
G1 X200.307 Y61.282 E24.26551
G1 X200.86 Y62.018 E24.29613
G1 X201.347 Y62.799 E24.32674
G1 X201.764 Y63.62 E24.35737
G1 X202.109 Y64.474 E24.388
G1 X202.378 Y65.354 E24.41861
G1 X202.57 Y66.255 E24.44925
G1 X202.683 Y67.168 E24.47984
G1 X202.712 Y67.712 E24.49796
G1 X202.721 Y68.032 E24.50861
G1 X202.725 Y68.33 E24.51852
G1 X202.725 Y166.264 E27.77582
G1 X202.715 Y167.122 E27.80436
G1 X202.664 Y168.041 E27.83497
G1 X202.533 Y168.953 E27.86562
G1 X202.323 Y169.849 E27.89623
G1 X202.037 Y170.724 E27.92684
G1 X201.676 Y171.571 E27.95747
G1 X201.242 Y172.383 E27.98809
G1 X200.74 Y173.155 E28.01872
G1 X200.172 Y173.88 E28.04935
G1 X199.544 Y174.553 E28.07997
G1 X198.86 Y175.169 E28.11058
G1 X198.125 Y175.723 E28.1412
G1 X197.345 Y176.212 E28.17182
G1 X196.525 Y176.631 E28.20244
G1 X195.672 Y176.977 E28.23306
G1 X194.792 Y177.248 E28.26368
G1 X193.892 Y177.441 E28.2943
G1 X192.978 Y177.556 E28.32494
G1 X192.413 Y177.587 E28.34376
G1 X192.092 Y177.596 E28.35444
G1 X191.795 Y177.6 E28.36432
G1 X43.582 Y177.6 E33.2939
G1 X42.747 Y177.59 E33.32168
G1 X41.828 Y177.538 E33.35229
G1 X40.917 Y177.407 E33.3829
G1 X40.021 Y177.197 E33.41351
G1 X39.146 Y176.91 E33.44414
G1 X38.299 Y176.548 E33.47478
G1 X37.487 Y176.114 E33.5054
G1 X36.716 Y175.612 E33.536
G1 X35.991 Y175.044 E33.56663
G1 X35.318 Y174.415 E33.59727
G1 X34.703 Y173.731 E33.62786
G1 X34.149 Y172.996 E33.65848
G1 X33.661 Y172.215 E33.68911
G1 X33.242 Y171.395 E33.71973
G1 X32.896 Y170.542 E33.75035
G1 X32.626 Y169.662 E33.78097
G1 X32.433 Y168.761 E33.81161
G1 X32.319 Y167.848 E33.84222
G1 X32.288 Y167.277 E33.86124
G1 X32.279 Y166.944 E33.87232
G1 X32.275 Y166.658 E33.88183
G1 X32.275 Y68.674 E37.14079
G1 X32.285 Y67.866 E37.16767
G1 X32.337 Y66.946 E37.19831
G1 X32.469 Y66.035 E37.22893
G1 X32.68 Y65.139 E37.25955
G1 X32.967 Y64.264 E37.29017
G1 X33.33 Y63.418 E37.32079
G1 X33.764 Y62.606 E37.35142
G1 X34.267 Y61.835 E37.38203
G1 X34.836 Y61.111 E37.41266
G1 X35.464 Y60.439 E37.44325
G1 X36.149 Y59.823 E37.47389
G1 X36.885 Y59.27 E37.50451
G1 X37.666 Y58.782 E37.53514
G0 F6000 X38.044 Y59.031
G1 F900 X38.857 Y58.638 E37.56518
G1 X39.702 Y58.318 E37.59523
G1 X40.571 Y58.075 E37.62524
G1 X41.459 Y57.909 E37.65529
G1 X42.598 Y57.813 E37.69331
G1 X42.919 Y57.804 E37.70399
G1 X43.205 Y57.8 E37.7135
G1 X191.418 Y57.8 E42.64308
G1 X192.262 Y57.811 E42.67116
G1 X193.164 Y57.864 E42.70121
G1 X194.057 Y57.996 E42.73123
G1 X194.935 Y58.207 E42.76127
G1 X195.791 Y58.495 E42.79131
G1 X196.618 Y58.857 E42.82133
G1 X197.41 Y59.292 E42.85139
G1 X198.161 Y59.794 E42.88143
G1 X198.864 Y60.361 E42.91147
G1 X199.514 Y60.988 E42.94151
G1 X200.106 Y61.67 E42.97155
G1 X200.636 Y62.401 E43.00158
G1 X201.098 Y63.177 E43.03162
G1 X201.491 Y63.99 E43.06165
G1 X201.809 Y64.835 E43.09168
G1 X202.052 Y65.705 E43.12172
G1 X202.217 Y66.593 E43.15176
G1 X202.312 Y67.723 E43.18948
G1 X202.321 Y68.043 E43.20013
G1 X202.325 Y68.33 E43.20967
G1 X202.325 Y166.264 E46.46697
G1 X202.315 Y167.117 E46.49534
G1 X202.264 Y168.019 E46.52539
G1 X202.133 Y168.913 E46.55545
G1 X201.924 Y169.791 E46.58546
G1 X201.638 Y170.648 E46.61551
G1 X201.277 Y171.476 E46.64556
G1 X200.845 Y172.268 E46.67556
G1 X200.344 Y173.02 E46.70562
G1 X199.778 Y173.724 E46.73566
G1 X199.153 Y174.375 E46.76568
G1 X198.472 Y174.969 E46.79573
G1 X197.741 Y175.5 E46.82578
G1 X196.967 Y175.964 E46.8558
G1 X196.154 Y176.358 E46.88585
G1 X195.31 Y176.678 E46.91587
G1 X194.44 Y176.923 E46.94593
G1 X193.553 Y177.089 E46.97594
G1 X192.402 Y177.187 E47.01436
G1 X192.081 Y177.196 E47.02504
G1 X191.795 Y177.2 E47.03456
G1 X43.582 Y177.2 E51.96414
G1 X42.752 Y177.19 E51.99175
G1 X41.851 Y177.139 E52.02177
G1 X40.957 Y177.007 E52.05182
G1 X40.079 Y176.798 E52.08184
G1 X39.222 Y176.511 E52.1119
G1 X38.395 Y176.15 E52.14191
G1 X37.602 Y175.717 E52.17196
G1 X36.851 Y175.216 E52.20199
G1 X36.147 Y174.65 E52.23203
G1 X35.496 Y174.024 E52.26207
G1 X34.903 Y173.343 E52.29211
G1 X34.373 Y172.612 E52.32214
G1 X33.909 Y171.837 E52.35218
G1 X33.515 Y171.024 E52.38223
G1 X33.195 Y170.18 E52.41225
G1 X32.951 Y169.31 E52.4423
G1 X32.785 Y168.422 E52.47235
G1 X32.688 Y167.267 E52.5109
G1 X32.679 Y166.934 E52.52198
G1 X32.675 Y166.658 E52.53116
G1 X32.675 Y68.674 E55.79012
G1 X32.685 Y67.871 E55.81683
G1 X32.737 Y66.969 E55.84688
G1 X32.869 Y66.076 E55.87691
G1 X33.079 Y65.198 E55.90693
G1 X33.366 Y64.341 E55.93699
G1 X33.728 Y63.514 E55.96702
G1 X34.161 Y62.722 E55.99704
G1 X34.663 Y61.971 E56.02709
G1 X35.23 Y61.267 E56.05715
G1 X35.856 Y60.617 E56.08717
G1 X36.537 Y60.024 E56.1172
G1 X37.269 Y59.494 E56.14726
G1 X38.044 Y59.031 E56.17728
G1 F2700 E51.17728
;MESH:cajonera3_tapa.stl
G0 F6000 X43.189 Y67.335
G0 X43.189 Y68.314
G0 X43.673 Y162.742
G0 X43.775 Y163.12
G0 X44.823 Y165.6
;TYPE:WALL-INNER
G1 F2700 E56.17728
G1 F900 X44.557 Y165.6 E56.18613
G1 X44.275 Y165.6 E56.19551
G1 X44.275 Y165.5 E56.19649
G1 X44.275 Y165.358 E56.19907
G1 X44.372 Y165.406 E56.19972
G1 X44.557 Y165.5 E56.20183
G1 X44.823 Y165.6 E56.20341
G0 F6000 X44.997 Y165.238
G1 F900 X45.276 Y165.314 E56.21302
G1 X45.556 Y165.356 E56.22244
G1 X45.576 Y165.36 E56.22312
G1 X45.887 Y165.377 E56.23348
G1 X46.189 Y165.359 E56.24354
G1 X46.488 Y165.31 E56.25362
G1 X46.776 Y165.23 E56.26356
G1 X47.056 Y165.124 E56.27352
G1 X47.314 Y164.991 E56.28317
G1 X47.567 Y164.827 E56.2932
G1 X47.811 Y164.627 E56.30369
G1 X48.02 Y164.415 E56.31359
G1 X48.21 Y164.181 E56.32362
G1 X48.373 Y163.925 E56.33371
G1 X48.508 Y163.657 E56.34369
G1 X48.613 Y163.378 E56.35361
G1 X48.689 Y163.099 E56.36323
G1 X48.731 Y162.819 E56.37264
G1 X48.735 Y162.799 E56.37332
G1 X48.752 Y162.488 E56.38368
G1 X48.734 Y162.186 E56.39374
G1 X48.685 Y161.887 E56.40382
G1 X48.605 Y161.599 E56.41376
G1 X48.499 Y161.319 E56.42372
G1 X48.366 Y161.061 E56.43338
G1 X48.202 Y160.808 E56.4434
G1 X48.002 Y160.564 E56.4539
G1 X47.79 Y160.355 E56.4638
G1 X47.555 Y160.165 E56.47385
G1 X47.299 Y160.002 E56.48394
G1 X47.032 Y159.867 E56.4939
G1 X46.753 Y159.762 E56.50381
G1 X46.474 Y159.686 E56.51343
G1 X46.194 Y159.644 E56.52284
G1 X46.174 Y159.64 E56.52352
G1 X45.863 Y159.623 E56.53388
G1 X45.561 Y159.641 E56.54394
G1 X45.262 Y159.69 E56.55402
G1 X44.974 Y159.77 E56.56396
G1 X44.695 Y159.876 E56.57389
G1 X44.457 Y159.997 E56.58277
G1 X44.435 Y160.009 E56.5836
G1 X44.183 Y160.174 E56.59362
G1 X43.939 Y160.373 E56.6041
G1 X43.875 Y160.438 E56.60713
G1 X43.875 Y160.373
G1 X43.875 Y160.174 E56.60961
G1 X43.875 Y74.907 E59.4456
G1 X43.875 Y74.835 E59.448
G1 X43.875 Y74.645 E59.45432
G1 X43.875 Y74.561 E59.45711
G1 X43.96 Y74.645 E59.45828
G1 X44.194 Y74.835 E59.46464
G1 X44.254 Y74.873 E59.46679
G1 X44.45 Y74.998 E59.47452
G1 X44.718 Y75.133 E59.4845
G1 X44.997 Y75.238 E59.49442
G1 X45.276 Y75.314 E59.50404
G1 X45.556 Y75.356 E59.51345
G1 X45.576 Y75.36 E59.51413
G1 X45.887 Y75.377 E59.52449
G1 X46.189 Y75.359 E59.53455
G1 X46.488 Y75.31 E59.54463
G1 X46.776 Y75.23 E59.55457
G1 X47.056 Y75.124 E59.56453
G1 X47.314 Y74.991 E59.57419
G1 X47.567 Y74.827 E59.58421
G1 X47.811 Y74.627 E59.59471
G1 X48.02 Y74.415 E59.60461
G1 X48.21 Y74.18 E59.61466
G1 X48.373 Y73.924 E59.62475
G1 X48.508 Y73.657 E59.63471
G1 X48.613 Y73.378 E59.64462
G1 X48.689 Y73.099 E59.65424
G1 X48.731 Y72.819 E59.66365
G1 X48.735 Y72.799 E59.66433
G1 X48.752 Y72.488 E59.67469
G1 X48.734 Y72.186 E59.68475
G1 X48.685 Y71.887 E59.69483
G1 X48.605 Y71.599 E59.70477
G1 X48.499 Y71.32 E59.7147
G1 X48.366 Y71.06 E59.72441
G1 X48.201 Y70.808 E59.73443
G1 X48.002 Y70.564 E59.7449
G1 X47.79 Y70.355 E59.75481
G1 X47.555 Y70.165 E59.76486
G1 X47.299 Y70.002 E59.77495
G1 X47.032 Y69.867 E59.7849
G1 X46.753 Y69.762 E59.79482
G1 X46.474 Y69.686 E59.80444
G1 X46.194 Y69.644 E59.81385
G1 X46.174 Y69.64 E59.81453
G1 X45.863 Y69.623 E59.82489
G1 X45.561 Y69.641 E59.83495
G1 X45.262 Y69.69 E59.84503
G1 X44.974 Y69.77 E59.85497
G1 X44.695 Y69.876 E59.8649
G1 X44.457 Y69.997 E59.87378
G1 X44.435 Y70.009 E59.87461
G1 X44.253 Y70.128 E59.88184
G1 X44.183 Y70.174 E59.88463
G1 X43.939 Y70.373 E59.8951
G1 X43.875 Y70.438 E59.89814
G1 X43.875 Y70.373
G1 X43.875 Y70.174 E59.90062
G1 X43.875 Y70.09 E59.90313
G1 X43.875 Y69 E59.93939
G1 X191.125 Y69 E64.83694
G1 X191.125 Y70.093 E64.8733
G1 X191.125 Y70.165 E64.87569
G1 X191.125 Y70.355 E64.88201
G1 X191.125 Y70.439 E64.8848
G1 X191.04 Y70.355 E64.88597
G1 X190.806 Y70.165 E64.89233
G1 X190.746 Y70.127 E64.89448
G1 X190.55 Y70.002 E64.90222
G1 X190.282 Y69.867 E64.9122
G1 X190.003 Y69.762 E64.92211
G1 X189.724 Y69.686 E64.93173
G1 X189.444 Y69.644 E64.94115
G1 X189.424 Y69.64 E64.94183
G1 X189.113 Y69.623 E64.95218
G1 X188.811 Y69.641 E64.96225
G1 X188.512 Y69.69 E64.97232
G1 X188.224 Y69.77 E64.98227
G1 X187.944 Y69.876 E64.99222
G1 X187.686 Y70.009 E65.00188
G1 X187.433 Y70.173 E65.01191
G1 X187.189 Y70.373 E65.0224
G1 X186.98 Y70.585 E65.0323
G1 X186.79 Y70.819 E65.04233
G1 X186.627 Y71.075 E65.05242
G1 X186.492 Y71.343 E65.0624
G1 X186.387 Y71.622 E65.07232
G1 X186.311 Y71.901 E65.08193
G1 X186.269 Y72.181 E65.09135
G1 X186.265 Y72.201 E65.09203
G1 X186.248 Y72.512 E65.10239
G1 X186.266 Y72.814 E65.11245
G1 X186.315 Y73.113 E65.12253
G1 X186.395 Y73.401 E65.13247
G1 X186.501 Y73.681 E65.14243
G1 X186.634 Y73.939 E65.15208
G1 X186.798 Y74.192 E65.16211
G1 X186.998 Y74.436 E65.1726
G1 X187.21 Y74.645 E65.18251
G1 X187.445 Y74.835 E65.19256
G1 X187.701 Y74.998 E65.20265
G1 X187.968 Y75.133 E65.2126
G1 X188.247 Y75.238 E65.22252
G1 X188.526 Y75.314 E65.23213
G1 X188.806 Y75.356 E65.24155
G1 X188.826 Y75.36 E65.24223
G1 X189.137 Y75.377 E65.25259
G1 X189.439 Y75.359 E65.26265
G1 X189.738 Y75.31 E65.27273
G1 X190.026 Y75.23 E65.28267
G1 X190.305 Y75.124 E65.2926
G1 X190.543 Y75.003 E65.30148
G1 X190.565 Y74.991 E65.30231
G1 X190.817 Y74.826 E65.31233
G1 X191.061 Y74.627 E65.3228
G1 X191.125 Y74.562 E65.32584
G1 X191.125 Y74.627
G1 X191.125 Y74.826 E65.32832
G1 X191.125 Y160.093 E68.16431
G1 X191.125 Y160.165 E68.1667
G1 X191.125 Y160.355 E68.17302
G1 X191.125 Y160.439 E68.17582
G1 X191.04 Y160.355 E68.17699
G1 X190.806 Y160.165 E68.18334
G1 X190.746 Y160.127 E68.1855
G1 X190.55 Y160.002 E68.19323
G1 X190.282 Y159.867 E68.20321
G1 X190.003 Y159.762 E68.21313
G1 X189.724 Y159.686 E68.22274
G1 X189.444 Y159.644 E68.23216
G1 X189.424 Y159.64 E68.23284
G1 X189.113 Y159.623 E68.2432
G1 X188.811 Y159.641 E68.25326
G1 X188.512 Y159.69 E68.26334
G1 X188.224 Y159.77 E68.27328
G1 X187.944 Y159.876 E68.28324
G1 X187.686 Y160.009 E68.29289
G1 X187.433 Y160.173 E68.30292
G1 X187.189 Y160.373 E68.31341
G1 X186.98 Y160.585 E68.32331
G1 X186.79 Y160.82 E68.33337
G1 X186.627 Y161.076 E68.34346
G1 X186.492 Y161.343 E68.35341
G1 X186.387 Y161.622 E68.36333
G1 X186.311 Y161.901 E68.37294
G1 X186.269 Y162.181 E68.38236
G1 X186.265 Y162.201 E68.38304
G1 X186.248 Y162.512 E68.3934
G1 X186.266 Y162.814 E68.40346
G1 X186.315 Y163.113 E68.41354
G1 X186.395 Y163.401 E68.42348
G1 X186.501 Y163.681 E68.43344
G1 X186.634 Y163.939 E68.44309
G1 X186.798 Y164.192 E68.45312
G1 X186.998 Y164.436 E68.46361
G1 X187.21 Y164.645 E68.47352
G1 X187.445 Y164.835 E68.48357
G1 X187.701 Y164.998 E68.49366
G1 X187.968 Y165.133 E68.50361
G1 X188.247 Y165.238 E68.51353
G1 X188.526 Y165.314 E68.52314
G1 X188.806 Y165.356 E68.53256
G1 X188.826 Y165.36 E68.53324
G1 X189.137 Y165.377 E68.5436
G1 X189.439 Y165.359 E68.55366
G1 X189.738 Y165.31 E68.56374
G1 X190.026 Y165.23 E68.57368
G1 X190.305 Y165.124 E68.58361
G1 X190.543 Y165.003 E68.59249
G1 X190.565 Y164.991 E68.59332
G1 X190.747 Y164.872 E68.60055
G1 X190.817 Y164.826 E68.60334
G1 X191.061 Y164.627 E68.61381
G1 X191.125 Y164.562 E68.61685
G1 X191.125 Y164.627
G1 X191.125 Y164.826 E68.61933
G1 X191.125 Y164.91 E68.62184
G1 X191.125 Y166 E68.6581
G1 X43.875 Y166 E73.55565
G1 X43.875 Y164.907 E73.592
G1 X43.875 Y164.835 E73.5944
G1 X43.875 Y164.645 E73.60072
G1 X43.875 Y164.561 E73.60351
G1 X43.96 Y164.645 E73.60468
G1 X44.194 Y164.835 E73.61104
G1 X44.254 Y164.873 E73.61319
G1 X44.45 Y164.998 E73.62093
G1 X44.718 Y165.133 E73.63091
G1 X44.997 Y165.238 E73.64082
G0 F6000 X45.12 Y164.857
