;FLAVOR:Marlin
;TIME:23143
;Filament used: 13.354m
;Layer height: 0.2
;MINX:38.25
;MINY:54.609
;MINZ:0.2
;MAXX:196.75
;MAXY:180.391
;MAXZ:15.6
;Generated with Cura_SteamEngine 4.7.1
M140 S70
M105
M190 S70
M104 S240
M105
M109 S240
M82 ;absolute extrusion mode
; Ender 3 Custom Start G-code
G92 E0 ; Reset Extruder
G28 ; Home all axes
G1 Z2.0 F3000 ; Move Z Axis up little to prevent scratching of Heat Bed
G1 X0.1 Y20 Z0.3 F5000.0 ; Move to start position
G1 X0.1 Y200.0 Z0.3 F1500.0 E15 ; Draw the first line
G1 X0.4 Y200.0 Z0.3 F5000.0 ; Move to side a little
G1 X0.4 Y20 Z0.3 F1500.0 E30 ; Draw the second line
G92 E0 ; Reset Extruder
G1 Z2.0 F3000 ; Move Z Axis up little to prevent scratching of Heat Bed
G1 X5 Y20 Z0.3 F5000.0 ; Move over to prevent blob squish
G92 E0
G92 E0
G1 F2700 E-5
;LAYER_COUNT:78
;LAYER:0
M107
G0 F6000 X42.876 Y64.134 Z0.2
;TYPE:SKIRT
G1 F2700 E0
G1 F900 X43.662 Y63.622 E0.0312
G1 X44.489 Y63.18 E0.06239
G1 X45.351 Y62.81 E0.09359
G1 X46.241 Y62.514 E0.12478
G1 X47.153 Y62.296 E0.15597
G1 X48.08 Y62.155 E0.18716
G1 X48.951 Y62.096 E0.21619
G1 X49.272 Y62.087 E0.22687
G1 X49.58 Y62.083 E0.23712
G1 X68.262 Y62.083 E0.85849
G1 X70.87 Y62.046 E0.94524
G1 X73.391 Y61.939 E1.02916
G1 X75.886 Y61.762 E1.11235
G1 X78.386 Y61.514 E1.19591
G1 X80.879 Y61.195 E1.27951
G1 X83.372 Y60.804 E1.36344
G1 X85.862 Y60.341 E1.44767
G1 X88.326 Y59.811 E1.5315
G1 X90.728 Y59.222 E1.61376
G1 X93.184 Y58.546 E1.69848
G1 X95.594 Y57.808 E1.78231
G1 X97.986 Y57.001 E1.86628
G1 X100.319 Y56.141 E1.94898
G1 X101.486 Y55.673 E1.9908
G1 X102.305 Y55.357 E2.02
G1 X103.194 Y55.057 E2.0512
G1 X103.888 Y54.88 E2.07502
G1 X104.811 Y54.716 E2.1062
G1 X105.963 Y54.622 E2.14465
G1 X106.281 Y54.613 E2.15523
G1 X106.592 Y54.609 E2.16557
G1 X128.202 Y54.61 E2.88432
G1 X128.91 Y54.621 E2.90787
G1 X129.846 Y54.676 E2.93906
G1 X130.774 Y54.81 E2.97025
G1 X131.688 Y55.023 E3.00146
G1 X132.832 Y55.41 E3.04163
G1 X133.409 Y55.641 E3.0623
G1 X135.856 Y56.583 E3.14951
G1 X138.205 Y57.413 E3.23237
G1 X140.634 Y58.193 E3.31722
G1 X143.029 Y58.889 E3.40018
G1 X145.472 Y59.524 E3.48413
G1 X147.903 Y60.086 E3.56712
G1 X150.363 Y60.579 E3.65057
G1 X152.899 Y61.012 E3.73613
G1 X155.347 Y61.361 E3.81838
G1 X157.885 Y61.649 E3.90333
G1 X160.35 Y61.858 E3.98561
G1 X162.846 Y61.999 E4.06876
G1 X166.793 Y62.083 E4.20007
G1 X185.201 Y62.084 E4.81232
G1 X185.899 Y62.094 E4.83554
G1 X186.835 Y62.148 E4.86673
G1 X187.763 Y62.28 E4.8979
G1 X188.677 Y62.492 E4.92911
G1 X189.569 Y62.781 E4.96029
G1 X190.434 Y63.144 E4.9915
G1 X191.264 Y63.58 E5.02268
G1 X192.055 Y64.085 E5.05389
G1 X192.799 Y64.656 E5.08508
G1 X193.492 Y65.288 E5.11628
G1 X194.129 Y65.976 E5.14747
G1 X194.704 Y66.717 E5.17866
G1 X195.215 Y67.503 E5.20984
G1 X195.657 Y68.331 E5.24106
G1 X196.026 Y69.193 E5.27225
G1 X196.321 Y70.083 E5.30343
G1 X196.539 Y70.995 E5.33462
G1 X196.679 Y71.923 E5.36583
G1 X196.737 Y72.784 E5.39454
G1 X196.746 Y73.104 E5.40518
G1 X196.75 Y73.413 E5.41546
G1 X196.75 Y168.655 E8.58322
G1 X196.74 Y169.518 E8.61193
G1 X196.689 Y170.455 E8.64314
G1 X196.557 Y171.383 E8.67432
G1 X196.348 Y172.297 E8.7055
G1 X196.061 Y173.19 E8.7367
G1 X195.699 Y174.056 E8.76792
G1 X195.265 Y174.887 E8.7991
G1 X194.761 Y175.678 E8.83029
G1 X194.192 Y176.423 E8.86147
G1 X193.561 Y177.118 E8.89269
G1 X192.874 Y177.756 E8.92388
G1 X192.135 Y178.333 E8.95506
G1 X191.349 Y178.845 E8.98626
G1 X190.523 Y179.288 E9.01744
G1 X189.661 Y179.66 E9.04866
G1 X188.772 Y179.956 E9.07983
G1 X187.86 Y180.176 E9.11103
G1 X186.933 Y180.317 E9.14222
G1 X186.049 Y180.378 E9.17169
G1 X185.728 Y180.387 E9.18237
G1 X185.42 Y180.391 E9.19261
G1 X49.957 Y180.391 E13.69813
G1 X49.117 Y180.381 E13.72607
G1 X48.181 Y180.329 E13.75725
G1 X47.252 Y180.197 E13.78846
G1 X46.338 Y179.987 E13.81965
G1 X45.445 Y179.7 E13.85085
G1 X44.58 Y179.337 E13.88205
G1 X43.749 Y178.903 E13.91323
G1 X42.958 Y178.399 E13.94443
G1 X42.213 Y177.829 E13.97563
G1 X41.519 Y177.198 E14.00682
G1 X40.882 Y176.511 E14.03798
G1 X40.305 Y175.771 E14.06919
G1 X39.793 Y174.985 E14.10039
G1 X39.35 Y174.158 E14.1316
G1 X38.979 Y173.297 E14.16278
G1 X38.683 Y172.407 E14.19398
G1 X38.464 Y171.495 E14.22517
G1 X38.323 Y170.568 E14.25636
G1 X38.263 Y169.679 E14.28599
G1 X38.254 Y169.346 E14.29707
G1 X38.25 Y169.049 E14.30695
G1 X38.25 Y73.757 E17.47638
G1 X38.26 Y72.943 E17.50345
G1 X38.313 Y72.007 E17.53464
G1 X38.445 Y71.078 E17.56584
G1 X38.656 Y70.164 E17.59704
G1 X38.944 Y69.272 E17.62822
G1 X39.307 Y68.407 E17.65942
G1 X39.742 Y67.576 E17.69062
G1 X40.246 Y66.786 E17.72178
G1 X40.816 Y66.041 E17.75298
G1 X41.448 Y65.347 E17.7842
G1 X42.136 Y64.71 E17.81539
G1 X42.876 Y64.134 E17.84658
G0 F6000 X43.26 Y64.353
G1 F900 X44.041 Y63.865 E17.87721
G1 X44.861 Y63.447 E17.90782
G1 X45.715 Y63.102 E17.93846
G1 X46.595 Y62.832 E17.96907
G1 X47.495 Y62.64 E17.99968
G1 X48.409 Y62.526 E18.03031
G1 X48.962 Y62.496 E18.04873
G1 X49.283 Y62.487 E18.05941
G1 X49.58 Y62.483 E18.06929
G1 X68.268 Y62.483 E18.69086
G1 X70.893 Y62.446 E18.77818
G1 X73.401 Y62.339 E18.86167
G1 X75.921 Y62.161 E18.94569
G1 X78.436 Y61.912 E19.02975
G1 X80.925 Y61.593 E19.11321
G1 X83.477 Y61.192 E19.19913
G1 X85.908 Y60.74 E19.28137
G1 X88.4 Y60.204 E19.36615
G1 X90.857 Y59.602 E19.45029
G1 X93.302 Y58.929 E19.53464
G1 X95.702 Y58.194 E19.61812
G1 X98.116 Y57.38 E19.70285
G1 X100.488 Y56.505 E19.78694
G1 X101.63 Y56.047 E19.82787
G1 X102.449 Y55.731 E19.85706
G1 X103.322 Y55.437 E19.8877
G1 X103.975 Y55.27 E19.91012
G1 X104.881 Y55.11 E19.94072
G1 X105.974 Y55.022 E19.97719
G1 X106.292 Y55.013 E19.98777
G1 X106.592 Y55.009 E19.99775
G1 X128.196 Y55.01 E20.7163
G1 X128.904 Y55.021 E20.73985
G1 X129.823 Y55.076 E20.77047
G1 X130.734 Y55.209 E20.8011
G1 X131.629 Y55.422 E20.83169
G1 X132.683 Y55.781 E20.86873
G1 X133.265 Y56.014 E20.88958
G1 X135.715 Y56.957 E20.97689
G1 X138.087 Y57.795 E21.06057
G1 X140.515 Y58.575 E21.14539
G1 X142.913 Y59.272 E21.22845
G1 X145.396 Y59.917 E21.31377
G1 X147.806 Y60.474 E21.39604
G1 X150.316 Y60.977 E21.48118
G1 X152.817 Y61.405 E21.56558
G1 X155.312 Y61.76 E21.6494
G1 X157.804 Y62.042 E21.73281
G1 X160.364 Y62.261 E21.81827
G1 X162.816 Y62.399 E21.89995
G1 X166.784 Y62.483 E22.03196
G1 X185.195 Y62.484 E22.64431
G1 X185.893 Y62.494 E22.66753
G1 X186.812 Y62.547 E22.69814
G1 X187.723 Y62.68 E22.72876
G1 X188.619 Y62.891 E22.75938
G1 X189.493 Y63.179 E22.78999
G1 X190.34 Y63.542 E22.82064
G1 X191.151 Y63.977 E22.85125
G1 X191.921 Y64.481 E22.88185
G1 X192.645 Y65.05 E22.91248
G1 X193.317 Y65.68 E22.94312
G1 X193.932 Y66.365 E22.97374
G1 X194.485 Y67.101 E23.00436
G1 X194.972 Y67.882 E23.03497
G1 X195.389 Y68.703 E23.0656
G1 X195.734 Y69.557 E23.09623
G1 X196.003 Y70.437 E23.12684
G1 X196.195 Y71.338 E23.15748
G1 X196.308 Y72.251 E23.18807
G1 X196.337 Y72.795 E23.20619
G1 X196.346 Y73.115 E23.21684
G1 X196.35 Y73.413 E23.22675
G1 X196.35 Y168.655 E26.39451
G1 X196.34 Y169.513 E26.42305
G1 X196.289 Y170.432 E26.45367
G1 X196.158 Y171.344 E26.48431
G1 X195.948 Y172.24 E26.51492
G1 X195.662 Y173.115 E26.54554
G1 X195.301 Y173.962 E26.57616
G1 X194.867 Y174.774 E26.60678
G1 X194.365 Y175.546 E26.63741
G1 X193.797 Y176.271 E26.66805
G1 X193.169 Y176.944 E26.69866
G1 X192.485 Y177.56 E26.72928
G1 X191.75 Y178.114 E26.75989
G1 X190.97 Y178.603 E26.79051
G1 X190.15 Y179.022 E26.82114
G1 X189.297 Y179.368 E26.85175
G1 X188.417 Y179.639 E26.88238
G1 X187.517 Y179.832 E26.91299
G1 X186.603 Y179.947 E26.94363
G1 X186.038 Y179.978 E26.96245
G1 X185.717 Y179.987 E26.97313
G1 X185.42 Y179.991 E26.98301
G1 X49.957 Y179.991 E31.48853
G1 X49.122 Y179.981 E31.5163
G1 X48.203 Y179.929 E31.54692
G1 X47.292 Y179.798 E31.57753
G1 X46.396 Y179.588 E31.60814
G1 X45.521 Y179.301 E31.63877
G1 X44.674 Y178.939 E31.6694
G1 X43.862 Y178.505 E31.70003
G1 X43.091 Y178.003 E31.73063
G1 X42.366 Y177.435 E31.76126
G1 X41.693 Y176.806 E31.7919
G1 X41.078 Y176.122 E31.82249
G1 X40.524 Y175.387 E31.8531
G1 X40.036 Y174.606 E31.88373
G1 X39.617 Y173.786 E31.91436
G1 X39.271 Y172.933 E31.94498
G1 X39.001 Y172.053 E31.97559
G1 X38.808 Y171.152 E32.00624
G1 X38.694 Y170.239 E32.03684
G1 X38.663 Y169.668 E32.05586
G1 X38.654 Y169.335 E32.06694
G1 X38.65 Y169.049 E32.07646
G1 X38.65 Y73.757 E35.24588
G1 X38.66 Y72.949 E35.27276
G1 X38.712 Y72.029 E35.3034
G1 X38.844 Y71.118 E35.33402
G1 X39.055 Y70.222 E35.36464
G1 X39.342 Y69.347 E35.39527
G1 X39.705 Y68.501 E35.42588
G1 X40.139 Y67.689 E35.45651
G1 X40.642 Y66.918 E35.48713
G1 X41.211 Y66.194 E35.51775
G1 X41.839 Y65.522 E35.54834
G1 X42.524 Y64.906 E35.57898
G1 X43.26 Y64.353 E35.6096
G0 F6000 X43.644 Y64.577
G1 F900 X44.419 Y64.114 E35.63963
G1 X45.232 Y63.721 E35.66966
G1 X46.077 Y63.401 E35.69972
G1 X46.946 Y63.158 E35.72973
G1 X47.834 Y62.992 E35.75978
G1 X48.973 Y62.896 E35.79779
G1 X49.294 Y62.887 E35.80847
G1 X49.58 Y62.883 E35.81799
G1 X68.274 Y62.883 E36.43975
G1 X70.88 Y62.846 E36.52644
G1 X73.445 Y62.737 E36.61183
G1 X75.952 Y62.559 E36.69542
G1 X78.493 Y62.308 E36.78034
G1 X81.001 Y61.987 E36.86444
G1 X83.506 Y61.593 E36.94878
G1 X85.993 Y61.131 E37.03292
G1 X88.507 Y60.59 E37.11845
G1 X90.953 Y59.991 E37.2022
G1 X93.397 Y59.318 E37.28652
G1 X95.832 Y58.573 E37.37121
G1 X98.234 Y57.762 E37.45553
G1 X100.639 Y56.875 E37.54079
G1 X101.774 Y56.42 E37.58146
G1 X102.593 Y56.104 E37.61066
G1 X103.449 Y55.816 E37.6407
G1 X104.061 Y55.661 E37.6617
G1 X104.951 Y55.504 E37.69175
G1 X105.985 Y55.422 E37.72625
G1 X106.303 Y55.413 E37.73683
G1 X106.592 Y55.409 E37.74645
G1 X128.189 Y55.41 E38.46477
G1 X128.897 Y55.421 E38.48832
G1 X129.799 Y55.475 E38.51837
G1 X130.692 Y55.609 E38.54841
G1 X131.57 Y55.821 E38.57845
G1 X132.535 Y56.153 E38.61239
G1 X133.121 Y56.388 E38.63339
G1 X135.556 Y57.325 E38.72017
G1 X137.979 Y58.181 E38.80564
G1 X140.386 Y58.954 E38.88972
G1 X142.805 Y59.657 E38.97351
G1 X145.311 Y60.309 E39.05963
G1 X147.703 Y60.861 E39.14128
G1 X150.242 Y61.37 E39.22741
G1 X152.766 Y61.802 E39.31258
G1 X155.248 Y62.154 E39.39595
G1 X157.796 Y62.444 E39.48125
G1 X160.309 Y62.658 E39.56513
G1 X162.813 Y62.799 E39.64855
G1 X166.776 Y62.883 E39.78039
G1 X185.189 Y62.884 E40.39281
G1 X185.887 Y62.894 E40.41603
G1 X186.789 Y62.947 E40.44608
G1 X187.682 Y63.079 E40.4761
G1 X188.56 Y63.29 E40.50614
G1 X189.416 Y63.578 E40.53617
G1 X190.243 Y63.94 E40.5662
G1 X191.035 Y64.375 E40.59625
G1 X191.786 Y64.877 E40.6263
G1 X192.489 Y65.444 E40.65634
G1 X193.139 Y66.071 E40.68638
G1 X193.731 Y66.753 E40.71641
G1 X194.261 Y67.484 E40.74644
G1 X194.723 Y68.26 E40.77648
G1 X195.116 Y69.073 E40.80652
G1 X195.434 Y69.918 E40.83655
G1 X195.677 Y70.788 E40.86659
G1 X195.842 Y71.676 E40.89663
G1 X195.937 Y72.806 E40.93435
G1 X195.946 Y73.126 E40.94499
G1 X195.95 Y73.413 E40.95454
G1 X195.95 Y168.655 E44.1223
G1 X195.94 Y169.508 E44.15068
G1 X195.889 Y170.41 E44.18072
G1 X195.758 Y171.304 E44.21078
G1 X195.549 Y172.182 E44.24079
G1 X195.263 Y173.039 E44.27084
G1 X194.902 Y173.867 E44.30089
G1 X194.47 Y174.659 E44.33089
G1 X193.969 Y175.411 E44.36095
G1 X193.403 Y176.115 E44.39099
G1 X192.778 Y176.766 E44.42101
G1 X192.097 Y177.36 E44.45106
G1 X191.366 Y177.891 E44.48111
G1 X190.592 Y178.355 E44.51113
G1 X189.779 Y178.749 E44.54118
G1 X188.935 Y179.069 E44.5712
G1 X188.065 Y179.314 E44.60126
G1 X187.178 Y179.48 E44.63127
G1 X186.027 Y179.578 E44.66969
G1 X185.706 Y179.587 E44.68038
G1 X185.42 Y179.591 E44.68989
G1 X49.957 Y179.591 E49.19541
G1 X49.127 Y179.581 E49.22301
G1 X48.226 Y179.53 E49.25303
G1 X47.332 Y179.398 E49.28309
G1 X46.454 Y179.189 E49.3131
G1 X45.597 Y178.902 E49.34316
G1 X44.77 Y178.541 E49.37318
G1 X43.977 Y178.108 E49.40323
G1 X43.226 Y177.607 E49.43325
G1 X42.522 Y177.041 E49.4633
G1 X41.871 Y176.415 E49.49334
G1 X41.278 Y175.734 E49.52337
G1 X40.748 Y175.003 E49.5534
G1 X40.284 Y174.228 E49.58345
G1 X39.89 Y173.415 E49.61349
G1 X39.57 Y172.571 E49.64352
G1 X39.326 Y171.701 E49.67357
G1 X39.16 Y170.813 E49.70362
G1 X39.063 Y169.658 E49.74217
G1 X39.054 Y169.325 E49.75325
G1 X39.05 Y169.049 E49.76243
G1 X39.05 Y73.757 E52.93185
G1 X39.06 Y72.954 E52.95856
G1 X39.112 Y72.052 E52.98861
G1 X39.244 Y71.159 E53.01864
G1 X39.454 Y70.281 E53.04866
G1 X39.741 Y69.424 E53.07872
G1 X40.103 Y68.597 E53.10875
G1 X40.536 Y67.805 E53.13877
G1 X41.038 Y67.054 E53.16881
G1 X41.605 Y66.35 E53.19888
G1 X42.231 Y65.7 E53.22889
G1 X42.912 Y65.107 E53.25893
G1 X43.644 Y64.577 E53.28899
G1 F2700 E48.28899
;MESH:cajonera3_cajon.stl
G0 F6000 X105.597 Y67.73
G0 X108.412 Y67.73
G0 X108.608 Y74.476
;TYPE:WALL-INNER
G1 F2700 E53.28899
G1 F900 X126.392 Y74.476 E53.88048
G1 X126.392 Y67.926 E54.09834
G1 X108.608 Y67.926 E54.68984
G1 X108.608 Y74.476 E54.90769
G0 F6000 X109.008 Y74.076
G1 F900 X125.992 Y74.076 E55.47258
G1 X125.992 Y68.326 E55.66383
G1 X109.008 Y68.326 E56.22872
G1 X109.008 Y74.076 E56.41996
G0 F6000 X109.408 Y73.676
G1 F900 X125.592 Y73.676 E56.95824
G1 X125.592 Y68.726 E57.12288
G1 X109.408 Y68.726 E57.66116
G1 X109.408 Y73.676 E57.8258
G0 F6000 X109.808 Y73.276
;TYPE:WALL-OUTER
G1 F900 X125.192 Y73.276 E58.33748
G1 X125.192 Y69.126 E58.47551
G1 X109.808 Y69.126 E58.98718
G1 X109.808 Y73.276 E59.12521
G1 F2700 E54.12521
G0 F6000 X109.508 Y73.276
G0 X109.572 Y73.481
G0 X126.588 Y74.672
G0 X127.128 Y74.693
G0 X184.35 Y167.991
;TYPE:WALL-INNER
G1 F2700 E59.12521
G1 F900 X50.65 Y167.991 E63.57209
G1 X50.65 Y74.483 E66.68218
G1 X107.662 Y74.483 E68.5784
G1 X107.662 Y67.009 E68.82699
G1 X127.338 Y67.009 E69.48142
G1 X127.338 Y74.483 E69.73
G1 X184.35 Y74.483 E71.62623
G1 X184.35 Y167.991 E74.73632
G0 F6000 X184.75 Y168.391
G1 F900 X50.25 Y168.391 E79.20981
G1 X50.25 Y74.083 E82.3465
G1 X107.262 Y74.083 E84.24273
G1 X107.262 Y66.609 E84.49132
G1 X127.738 Y66.609 E85.17235
G1 X127.738 Y74.083 E85.42094
G1 X184.75 Y74.083 E87.31716
G1 X184.75 Y168.391 E90.45386
G0 F6000 X185.15 Y168.791
G1 F900 X49.85 Y168.791 E94.95396
G1 X49.85 Y73.683 E98.11726
G1 X106.862 Y73.683 E100.01349
G1 X106.862 Y66.209 E100.26208
G1 X128.138 Y66.209 E100.96972
G1 X128.138 Y73.683 E101.2183
G1 X185.15 Y73.683 E103.11453
G1 X185.15 Y168.791 E106.27784
G0 F6000 X185.55 Y169.191
;TYPE:WALL-OUTER
G1 F900 X49.45 Y169.191 E110.80454
G1 X49.45 Y73.283 E113.99445
G1 X106.462 Y73.283 E115.89068
G1 X106.462 Y65.809 E116.13927
G1 X128.538 Y65.809 E116.87352
G1 X128.538 Y73.283 E117.1221
G1 X185.55 Y73.283 E119.01833
G1 X185.55 Y169.191 E122.20824
G0 F6000 X185.28 Y168.921
G0 X184.24 Y167.601
G0 X183.96 Y167.601
;TYPE:SKIN
G1 F900 X51.04 Y167.601 E126.62918
G1 X51.04 Y74.873 E129.71333
G1 X108.052 Y74.873 E131.60955
G1 X108.052 Y67.399 E131.85814
G1 X126.948 Y67.399 E132.48662
G1 X126.948 Y74.873 E132.73521
G1 X183.96 Y74.873 E134.63144
G1 X183.96 Y167.601 E137.71558
G1 F2700 E132.71558
G0 F6000 X184.24 Y167.601
G0 X127.128 Y74.693
G0 X126.588 Y74.672
G0 X126.502 Y74.616
G0 X126.782 Y74.866
G1 F2700 E137.71558
G1 F900 X126.782 Y67.536 E137.95938
G1 X108.218 Y67.536 E138.57682
G1 X108.218 Y74.866 E138.82062
G1 X126.782 Y74.866 E139.43806
G1 F2700 E134.43806
G0 F6000 X126.502 Y74.616
G0 X126.588 Y74.672
G0 X127.128 Y74.693
G0 X184.24 Y75.187
G0 X183.798 Y75.187
G1 F2700 E139.43806
G1 F900 X183.644 Y75.033 E139.4453
G0 F6000 X183.079 Y75.033
G1 F900 X183.798 Y75.753 E139.47914
G0 F6000 X183.798 Y76.318
G1 F900 X182.513 Y75.033 E139.53959
G0 F6000 X181.947 Y75.033
G1 F900 X183.798 Y76.884 E139.62665
G0 F6000 X183.798 Y77.45
G1 F900 X181.382 Y75.033 E139.74032
G0 F6000 X180.816 Y75.033
G1 F900 X183.798 Y78.015 E139.88058
G0 F6000 X183.798 Y78.581
G1 F900 X180.25 Y75.033 E140.04747
G0 F6000 X179.685 Y75.033
G1 F900 X183.798 Y79.147 E140.24095
G0 F6000 X183.798 Y79.712
G1 F900 X179.119 Y75.033 E140.46104
G0 F6000 X178.553 Y75.033
G1 F900 X183.798 Y80.278 E140.70775
G0 F6000 X183.798 Y80.844
G1 F900 X177.987 Y75.033 E140.98108
G0 F6000 X177.422 Y75.033
G1 F900 X183.798 Y81.409 E141.28099
G0 F6000 X183.798 Y81.975
G1 F900 X176.856 Y75.033 E141.60752
G0 F6000 X176.29 Y75.033
G1 F900 X183.798 Y82.541 E141.96067
G0 F6000 X183.798 Y83.106
G1 F900 X175.725 Y75.033 E142.3404
G0 F6000 X175.159 Y75.033
G1 F900 X183.798 Y83.672 E142.74675
G0 F6000 X183.798 Y84.238
G1 F900 X174.593 Y75.033 E143.17973
