;FLAVOR:Marlin
;TIME:19426
;Filament used: 10.3426m
;Layer height: 0.2
;MINX:31.875
;MINY:57
;MINZ:0.2
;MAXX:203.125
;MAXY:178
;MAXZ:20
;Generated with Cura_SteamEngine 4.7.1
M140 S70
M105
M190 S70
M104 S240
M105
M109 S240
M82 ;absolute extrusion mode
; Ender 3 Custom Start G-code
G92 E0 ; Reset Extruder
G28 ; Home all axes
G1 Z2.0 F3000 ; Move Z Axis up little to prevent scratching of Heat Bed
G1 X0.1 Y20 Z0.3 F5000.0 ; Move to start position
G1 X0.1 Y200.0 Z0.3 F1500.0 E15 ; Draw the first line
G1 X0.4 Y200.0 Z0.3 F5000.0 ; Move to side a little
G1 X0.4 Y20 Z0.3 F1500.0 E30 ; Draw the second line
G92 E0 ; Reset Extruder
G1 Z2.0 F3000 ; Move Z Axis up little to prevent scratching of Heat Bed
G1 X5 Y20 Z0.3 F5000.0 ; Move over to prevent blob squish
G92 E0
G92 E0
G1 F2700 E-5
;LAYER_COUNT:100
;LAYER:0
M107
G0 F6000 X37.287 Y58.539 Z0.2
;TYPE:SKIRT
G1 F2700 E0
G1 F900 X38.114 Y58.097 E0.03119
G1 X38.976 Y57.727 E0.06239
G1 X39.866 Y57.431 E0.09358
G1 X40.778 Y57.213 E0.12477
G1 X41.705 Y57.072 E0.15596
G1 X42.576 Y57.013 E0.18499
G1 X42.897 Y57.004 E0.19567
G1 X43.205 Y57 E0.20592
G1 X191.418 Y57 E5.1355
G1 X191.576 Y57.001 E5.14076
G1 X192.274 Y57.011 E5.16398
G1 X193.21 Y57.065 E5.19516
G1 X194.138 Y57.197 E5.22634
G1 X195.052 Y57.409 E5.25754
G1 X195.944 Y57.698 E5.28873
G1 X196.809 Y58.061 E5.31993
G1 X197.639 Y58.497 E5.35111
G1 X198.43 Y59.002 E5.38233
G1 X199.174 Y59.573 E5.41352
G1 X199.867 Y60.205 E5.44472
G1 X200.504 Y60.893 E5.4759
G1 X201.079 Y61.634 E5.5071
G1 X201.59 Y62.42 E5.53828
G1 X202.032 Y63.248 E5.56949
G1 X202.401 Y64.11 E5.60068
G1 X202.696 Y65 E5.63187
G1 X202.914 Y65.912 E5.66305
G1 X203.054 Y66.84 E5.69427
G1 X203.112 Y67.701 E5.72297
G1 X203.121 Y68.021 E5.73362
G1 X203.125 Y68.33 E5.7439
G1 X203.125 Y166.264 E9.00119
G1 X203.115 Y167.127 E9.0299
G1 X203.064 Y168.064 E9.06111
G1 X202.932 Y168.992 E9.09229
G1 X202.723 Y169.906 E9.12347
G1 X202.436 Y170.799 E9.15467
G1 X202.074 Y171.665 E9.18589
G1 X201.64 Y172.496 E9.21707
G1 X201.136 Y173.287 E9.24826
G1 X200.567 Y174.032 E9.27944
G1 X199.936 Y174.727 E9.31067
G1 X199.249 Y175.365 E9.34185
G1 X198.51 Y175.942 E9.37303
G1 X197.724 Y176.454 E9.40423
G1 X196.898 Y176.897 E9.43541
G1 X196.036 Y177.269 E9.46663
G1 X195.147 Y177.565 E9.4978
G1 X194.235 Y177.785 E9.529
G1 X193.308 Y177.926 E9.56019
G1 X192.424 Y177.987 E9.58966
G1 X192.103 Y177.996 E9.60034
G1 X191.795 Y178 E9.61059
G1 X43.582 Y178 E14.54017
G1 X42.742 Y177.99 E14.56811
G1 X41.806 Y177.938 E14.59929
G1 X40.877 Y177.806 E14.6305
G1 X39.963 Y177.596 E14.66169
G1 X39.07 Y177.309 E14.69289
G1 X38.205 Y176.946 E14.72409
G1 X37.374 Y176.512 E14.75527
G1 X36.583 Y176.008 E14.78647
G1 X35.838 Y175.438 E14.81767
G1 X35.144 Y174.807 E14.84886
G1 X34.507 Y174.12 E14.88002
G1 X33.93 Y173.38 E14.91123
G1 X33.418 Y172.594 E14.94243
G1 X32.975 Y171.767 E14.97364
G1 X32.604 Y170.906 E15.00482
G1 X32.308 Y170.016 E15.03601
G1 X32.089 Y169.104 E15.06721
G1 X31.948 Y168.177 E15.0984
G1 X31.888 Y167.288 E15.12803
G1 X31.879 Y166.955 E15.13911
G1 X31.875 Y166.658 E15.14899
G1 X31.875 Y68.674 E18.40795
G1 X31.885 Y67.86 E18.43503
G1 X31.938 Y66.924 E18.46621
G1 X32.07 Y65.995 E18.49742
G1 X32.281 Y65.081 E18.52862
G1 X32.569 Y64.189 E18.55979
G1 X32.932 Y63.324 E18.59099
G1 X33.367 Y62.493 E18.62219
G1 X33.871 Y61.703 E18.65336
G1 X34.441 Y60.958 E18.68456
G1 X35.073 Y60.264 E18.71578
G1 X35.761 Y59.627 E18.74696
G1 X36.501 Y59.051 E18.77815
G1 X37.287 Y58.539 E18.80935
G0 F6000 X37.666 Y58.782
G1 F900 X38.486 Y58.364 E18.83996
G1 X39.34 Y58.019 E18.8706
G1 X40.22 Y57.749 E18.90121
G1 X41.12 Y57.557 E18.93182
G1 X42.034 Y57.443 E18.96246
G1 X42.587 Y57.413 E18.98088
G1 X42.908 Y57.404 E18.99156
G1 X43.205 Y57.4 E19.00144
G1 X191.418 Y57.4 E23.93102
G1 X192.268 Y57.411 E23.9593
G1 X193.187 Y57.464 E23.98991
G1 X194.098 Y57.597 E24.02053
G1 X194.994 Y57.808 E24.05115
G1 X195.868 Y58.096 E24.08176
G1 X196.715 Y58.459 E24.11241
G1 X197.526 Y58.894 E24.14302
G1 X198.296 Y59.398 E24.17362
G1 X199.02 Y59.967 E24.20425
G1 X199.692 Y60.597 E24.23489
G1 X200.307 Y61.282 E24.26551
G1 X200.86 Y62.018 E24.29613
G1 X201.347 Y62.799 E24.32674
G1 X201.764 Y63.62 E24.35737
G1 X202.109 Y64.474 E24.388
G1 X202.378 Y65.354 E24.41861
G1 X202.57 Y66.255 E24.44925
G1 X202.683 Y67.168 E24.47984
G1 X202.712 Y67.712 E24.49796
G1 X202.721 Y68.032 E24.50861
G1 X202.725 Y68.33 E24.51852
G1 X202.725 Y166.264 E27.77582
G1 X202.715 Y167.122 E27.80436
G1 X202.664 Y168.041 E27.83497
G1 X202.533 Y168.953 E27.86562
G1 X202.323 Y169.849 E27.89623
G1 X202.037 Y170.724 E27.92684
G1 X201.676 Y171.571 E27.95747
G1 X201.242 Y172.383 E27.98809
G1 X200.74 Y173.155 E28.01872
G1 X200.172 Y173.88 E28.04935
G1 X199.544 Y174.553 E28.07997
G1 X198.86 Y175.169 E28.11058
G1 X198.125 Y175.723 E28.1412
G1 X197.345 Y176.212 E28.17182
G1 X196.525 Y176.631 E28.20244
G1 X195.672 Y176.977 E28.23306
G1 X194.792 Y177.248 E28.26368
G1 X193.892 Y177.441 E28.2943
G1 X192.978 Y177.556 E28.32494
G1 X192.413 Y177.587 E28.34376
G1 X192.092 Y177.596 E28.35444
G1 X191.795 Y177.6 E28.36432
G1 X43.582 Y177.6 E33.2939
G1 X42.747 Y177.59 E33.32168
G1 X41.828 Y177.538 E33.35229
G1 X40.917 Y177.407 E33.3829
G1 X40.021 Y177.197 E33.41351
G1 X39.146 Y176.91 E33.44414
G1 X38.299 Y176.548 E33.47478
G1 X37.487 Y176.114 E33.5054
G1 X36.716 Y175.612 E33.536
G1 X35.991 Y175.044 E33.56663
G1 X35.318 Y174.415 E33.59727
G1 X34.703 Y173.731 E33.62786
G1 X34.149 Y172.996 E33.65848
G1 X33.661 Y172.215 E33.68911
G1 X33.242 Y171.395 E33.71973
G1 X32.896 Y170.542 E33.75035
G1 X32.626 Y169.662 E33.78097
G1 X32.433 Y168.761 E33.81161
G1 X32.319 Y167.848 E33.84222
G1 X32.288 Y167.277 E33.86124
G1 X32.279 Y166.944 E33.87232
G1 X32.275 Y166.658 E33.88183
G1 X32.275 Y68.674 E37.14079
G1 X32.285 Y67.866 E37.16767
G1 X32.337 Y66.946 E37.19831
G1 X32.469 Y66.035 E37.22893
G1 X32.68 Y65.139 E37.25955
G1 X32.967 Y64.264 E37.29017
G1 X33.33 Y63.418 E37.32079
G1 X33.764 Y62.606 E37.35142
G1 X34.267 Y61.835 E37.38203
G1 X34.836 Y61.111 E37.41266
G1 X35.464 Y60.439 E37.44325
G1 X36.149 Y59.823 E37.47389
G1 X36.885 Y59.27 E37.50451
G1 X37.666 Y58.782 E37.53514
G0 F6000 X38.044 Y59.031
G1 F900 X38.857 Y58.638 E37.56518
G1 X39.702 Y58.318 E37.59523
G1 X40.571 Y58.075 E37.62524
G1 X41.459 Y57.909 E37.65529
G1 X42.598 Y57.813 E37.69331
G1 X42.919 Y57.804 E37.70399
G1 X43.205 Y57.8 E37.7135
G1 X191.418 Y57.8 E42.64308
G1 X192.262 Y57.811 E42.67116
G1 X193.164 Y57.864 E42.70121
G1 X194.057 Y57.996 E42.73123
G1 X194.935 Y58.207 E42.76127
G1 X195.791 Y58.495 E42.79131
G1 X196.618 Y58.857 E42.82133
G1 X197.41 Y59.292 E42.85139
G1 X198.161 Y59.794 E42.88143
G1 X198.864 Y60.361 E42.91147
G1 X199.514 Y60.988 E42.94151
G1 X200.106 Y61.67 E42.97155
G1 X200.636 Y62.401 E43.00158
G1 X201.098 Y63.177 E43.03162
G1 X201.491 Y63.99 E43.06165
G1 X201.809 Y64.835 E43.09168
G1 X202.052 Y65.705 E43.12172
G1 X202.217 Y66.593 E43.15176
G1 X202.312 Y67.723 E43.18948
G1 X202.321 Y68.043 E43.20013
G1 X202.325 Y68.33 E43.20967
G1 X202.325 Y166.264 E46.46697
G1 X202.315 Y167.117 E46.49534
G1 X202.264 Y168.019 E46.52539
G1 X202.133 Y168.913 E46.55545
G1 X201.924 Y169.791 E46.58546
G1 X201.638 Y170.648 E46.61551
G1 X201.277 Y171.476 E46.64556
G1 X200.845 Y172.268 E46.67556
G1 X200.344 Y173.02 E46.70562
G1 X199.778 Y173.724 E46.73566
G1 X199.153 Y174.375 E46.76568
G1 X198.472 Y174.969 E46.79573
G1 X197.741 Y175.5 E46.82578
G1 X196.967 Y175.964 E46.8558
G1 X196.154 Y176.358 E46.88585
G1 X195.31 Y176.678 E46.91587
G1 X194.44 Y176.923 E46.94593
G1 X193.553 Y177.089 E46.97594
G1 X192.402 Y177.187 E47.01436
G1 X192.081 Y177.196 E47.02504
G1 X191.795 Y177.2 E47.03456
G1 X43.582 Y177.2 E51.96414
G1 X42.752 Y177.19 E51.99175
G1 X41.851 Y177.139 E52.02177
G1 X40.957 Y177.007 E52.05182
G1 X40.079 Y176.798 E52.08184
G1 X39.222 Y176.511 E52.1119
G1 X38.395 Y176.15 E52.14191
G1 X37.602 Y175.717 E52.17196
G1 X36.851 Y175.216 E52.20199
G1 X36.147 Y174.65 E52.23203
G1 X35.496 Y174.024 E52.26207
G1 X34.903 Y173.343 E52.29211
G1 X34.373 Y172.612 E52.32214
G1 X33.909 Y171.837 E52.35218
G1 X33.515 Y171.024 E52.38223
G1 X33.195 Y170.18 E52.41225
G1 X32.951 Y169.31 E52.4423
G1 X32.785 Y168.422 E52.47235
G1 X32.688 Y167.267 E52.5109
G1 X32.679 Y166.934 E52.52198
G1 X32.675 Y166.658 E52.53116
G1 X32.675 Y68.674 E55.79012
G1 X32.685 Y67.871 E55.81683
G1 X32.737 Y66.969 E55.84688
G1 X32.869 Y66.076 E55.87691
G1 X33.079 Y65.198 E55.90693
G1 X33.366 Y64.341 E55.93699
G1 X33.728 Y63.514 E55.96702
G1 X34.161 Y62.722 E55.99704
G1 X34.663 Y61.971 E56.02709
G1 X35.23 Y61.267 E56.05715
G1 X35.856 Y60.617 E56.08717
G1 X36.537 Y60.024 E56.1172
G1 X37.269 Y59.494 E56.14726
G1 X38.044 Y59.031 E56.17728
G1 F2700 E51.17728
G0 F6000 X189.062 Y72.464
G1 F2700 E56.17728
G1 F900 X189.101 Y72.432 E56.17896
G1 X189.151 Y72.433 E56.18063
G1 X189.195 Y72.482 E56.18282
G1 X189.188 Y72.536 E56.18463
G1 X189.152 Y72.567 E56.18621
G1 X189.097 Y72.566 E56.18804
G1 X189.055 Y72.515 E56.19023
G1 X189.062 Y72.464 E56.19195
G0 F6000 X188.714 Y72.268
G1 F900 X188.745 Y72.219 E56.19388
G1 X188.778 Y72.178 E56.19563
G1 X188.798 Y72.158 E56.19657
G1 X188.855 Y72.112 E56.199
G1 X188.878 Y72.097 E56.19992
G1 X188.929 Y72.071 E56.20182
G1 X188.982 Y72.05 E56.20372
G1 X189.036 Y72.035 E56.20558
G1 X189.061 Y72.031 E56.20642
G1 X189.13 Y72.028 E56.20872
G1 X189.172 Y72.029 E56.21012
G1 X189.223 Y72.038 E56.21184
G1 X189.276 Y72.052 E56.21366
G1 X189.304 Y72.063 E56.21466
G1 X189.367 Y72.094 E56.217
G1 X189.401 Y72.116 E56.21835
G1 X189.444 Y72.15 E56.22017
G1 X189.47 Y72.177 E56.22142
G1 X189.51 Y72.225 E56.22349
G1 X189.552 Y72.296 E56.22624
G1 X189.578 Y72.363 E56.22863
G1 X189.586 Y72.392 E56.22963
G1 X189.595 Y72.444 E56.23138
G1 X189.598 Y72.495 E56.23308
G1 X189.596 Y72.541 E56.23461
G1 X189.587 Y72.595 E56.23643
G1 X189.571 Y72.652 E56.2384
G1 X189.558 Y72.688 E56.23968
G1 X189.535 Y72.735 E56.24142
G1 X189.506 Y72.78 E56.2432
G1 X189.455 Y72.84 E56.24582
G1 X189.401 Y72.884 E56.24813
G1 X189.326 Y72.928 E56.25103
G1 X189.273 Y72.949 E56.25292
G1 X189.217 Y72.964 E56.25485
G1 X189.189 Y72.969 E56.2558
G1 X189.12 Y72.972 E56.25809
G1 X189.078 Y72.971 E56.25949
G1 X189.027 Y72.962 E56.26121
G1 X188.978 Y72.949 E56.2629
G1 X188.942 Y72.936 E56.26417
G1 X188.885 Y72.906 E56.26631
G1 X188.845 Y72.881 E56.26788
G1 X188.805 Y72.849 E56.26959
G1 X188.787 Y72.83 E56.27046
G1 X188.732 Y72.763 E56.27334
G1 X188.699 Y72.705 E56.27556
G1 X188.676 Y72.645 E56.2777
G1 X188.66 Y72.59 E56.2796
G1 X188.656 Y72.563 E56.28051
G1 X188.652 Y72.495 E56.28278
G1 X188.654 Y72.453 E56.28417
G1 X188.663 Y72.402 E56.2859
G1 X188.691 Y72.312 E56.28903
G1 X188.714 Y72.268 E56.29068
G0 F6000 X188.368 Y72.065
G1 F900 X188.417 Y71.989 E56.29369
G1 X188.48 Y71.911 E56.29703
G1 X188.529 Y71.861 E56.29935
G1 X188.615 Y71.792 E56.30302
G1 X188.675 Y71.752 E56.30542
G1 X188.77 Y71.703 E56.30898
G1 X188.849 Y71.673 E56.31179
G1 X188.955 Y71.643 E56.31545
G1 X189.013 Y71.634 E56.3174
G1 X189.126 Y71.628 E56.32117
G1 X189.218 Y71.632 E56.32423
G1 X189.307 Y71.646 E56.32723
G1 X189.396 Y71.67 E56.33029
G1 X189.47 Y71.698 E56.33292
G1 X189.565 Y71.746 E56.33646
G1 X189.638 Y71.793 E56.33935
G1 X189.708 Y71.849 E56.34233
G1 X189.763 Y71.903 E56.3449
G1 X189.836 Y71.991 E56.3487
G1 X189.875 Y72.052 E56.35111
G1 X189.92 Y72.138 E56.35433
G1 X189.955 Y72.229 E56.35758
G1 X189.981 Y72.325 E56.36089
G1 X189.992 Y72.39 E56.36308
G1 X189.998 Y72.492 E56.36648
G1 X189.994 Y72.586 E56.36961
G1 X189.979 Y72.681 E56.3728
G1 X189.955 Y72.769 E56.37584
G1 X189.924 Y72.851 E56.37875
G1 X189.886 Y72.928 E56.38161
G1 X189.833 Y73.011 E56.38489
G1 X189.774 Y73.086 E56.38806
G1 X189.73 Y73.131 E56.39015
G1 X189.633 Y73.211 E56.39433
G1 X189.561 Y73.257 E56.39718
G1 X189.486 Y73.295 E56.39997
G1 X189.405 Y73.327 E56.40287
G1 X189.297 Y73.357 E56.4066
G1 X189.237 Y73.366 E56.40862
G1 X189.124 Y73.372 E56.41238
G1 X189.032 Y73.368 E56.41544
G1 X188.943 Y73.354 E56.41844
G1 X188.854 Y73.33 E56.4215
G1 X188.781 Y73.302 E56.42411
G1 X188.68 Y73.251 E56.42787
G1 X188.611 Y73.206 E56.43061
G1 X188.539 Y73.148 E56.43368
G1 X188.491 Y73.101 E56.43592
G1 X188.411 Y73.002 E56.44015
G1 X188.369 Y72.937 E56.44273
G1 X188.329 Y72.859 E56.44564
G1 X188.295 Y72.769 E56.44884
G1 X188.268 Y72.669 E56.45229
G1 X188.258 Y72.607 E56.45437
G1 X188.252 Y72.499 E56.45797
G1 X188.257 Y72.406 E56.46107
G1 X188.271 Y72.318 E56.46403
G1 X188.297 Y72.222 E56.46734
G1 X188.322 Y72.155 E56.46972
G1 X188.368 Y72.065 E56.47308
G1 F2700 E51.47308
G0 F6000 X189.126 Y161.628
G1 F2700 E56.47308
G1 F900 X189.218 Y161.632 E56.47614
G1 X189.307 Y161.646 E56.47914
G1 X189.396 Y161.67 E56.48221
G1 X189.47 Y161.698 E56.48484
G1 X189.565 Y161.746 E56.48838
G1 X189.637 Y161.792 E56.49122
G1 X189.709 Y161.85 E56.4943
G1 X189.763 Y161.903 E56.49681
G1 X189.833 Y161.99 E56.50053
G1 X189.875 Y162.053 E56.50304
G1 X189.922 Y162.144 E56.50645
G1 X189.957 Y162.236 E56.50972
G1 X189.98 Y162.319 E56.51259
G1 X189.992 Y162.39 E56.51498
G1 X189.998 Y162.492 E56.51838
G1 X189.994 Y162.586 E56.52151
G1 X189.979 Y162.681 E56.52471
G1 X189.954 Y162.772 E56.52785
G1 X189.926 Y162.846 E56.53048
G1 X189.877 Y162.944 E56.53413
G1 X189.832 Y163.013 E56.53687
G1 X189.773 Y163.086 E56.53999
G1 X189.73 Y163.131 E56.54206
G1 X189.63 Y163.213 E56.54636
G1 X189.565 Y163.255 E56.54893
G1 X189.487 Y163.294 E56.55183
G1 X189.401 Y163.328 E56.55491
G1 X189.297 Y163.357 E56.5585
G1 X189.237 Y163.366 E56.56052
G1 X189.124 Y163.372 E56.56428
G1 X189.032 Y163.368 E56.56734
G1 X188.943 Y163.354 E56.57034
G1 X188.854 Y163.33 E56.57341
G1 X188.783 Y163.303 E56.57593
G1 X188.688 Y163.255 E56.57947
G1 X188.608 Y163.204 E56.58263
G1 X188.538 Y163.147 E56.58563
G1 X188.491 Y163.101 E56.58782
G1 X188.413 Y163.005 E56.59193
G1 X188.374 Y162.945 E56.59431
G1 X188.329 Y162.858 E56.59757
G1 X188.297 Y162.774 E56.60056
G1 X188.268 Y162.669 E56.60418
G1 X188.258 Y162.607 E56.60627
G1 X188.252 Y162.499 E56.60987
G1 X188.257 Y162.406 E56.61297
G1 X188.271 Y162.318 E56.61593
G1 X188.295 Y162.229 E56.619
G1 X188.323 Y162.154 E56.62166
G1 X188.363 Y162.073 E56.62466
G1 X188.436 Y161.964 E56.62903
G1 X188.465 Y161.928 E56.63057
G1 X188.532 Y161.86 E56.63374
G1 X188.627 Y161.784 E56.63779
G1 X188.675 Y161.752 E56.63971
G1 X188.77 Y161.703 E56.64326
G1 X188.849 Y161.673 E56.64607
G1 X188.955 Y161.643 E56.64974
G1 X189.013 Y161.634 E56.65169
G1 X189.126 Y161.628 E56.65545
G0 F6000 X189.13 Y162.028
G1 F900 X189.172 Y162.029 E56.65685
G1 X189.223 Y162.038 E56.65857
G1 X189.276 Y162.052 E56.66039
G1 X189.304 Y162.063 E56.66139
G1 X189.369 Y162.095 E56.6638
G1 X189.401 Y162.116 E56.66508
G1 X189.443 Y162.15 E56.66687
G1 X189.466 Y162.172 E56.66793
G1 X189.51 Y162.226 E56.67025
G1 X189.527 Y162.251 E56.67126
G1 X189.559 Y162.314 E56.67361
G1 X189.574 Y162.353 E56.675
G1 X189.588 Y162.403 E56.67672
G1 X189.595 Y162.441 E56.67801
G1 X189.598 Y162.495 E56.67981
G1 X189.596 Y162.541 E56.68134
G1 X189.587 Y162.595 E56.68316
G1 X189.571 Y162.654 E56.68519
G1 X189.559 Y162.687 E56.68636
G1 X189.53 Y162.743 E56.68846
G1 X189.509 Y162.776 E56.68976
G1 X189.474 Y162.82 E56.69163
G1 X189.451 Y162.843 E56.69271
G1 X189.401 Y162.884 E56.69486
G1 X189.327 Y162.927 E56.69771
G1 X189.269 Y162.95 E56.69978
G1 X189.217 Y162.964 E56.70157
G1 X189.189 Y162.969 E56.70252
G1 X189.12 Y162.972 E56.70482
G1 X189.078 Y162.971 E56.70621
G1 X189.027 Y162.962 E56.70794
G1 X188.978 Y162.949 E56.70962
G1 X188.942 Y162.936 E56.7109
G1 X188.884 Y162.906 E56.71307
G1 X188.846 Y162.882 E56.71456
G1 X188.805 Y162.849 E56.71631
G1 X188.787 Y162.83 E56.71718
G1 X188.736 Y162.768 E56.71985
G1 X188.696 Y162.698 E56.72254
G1 X188.675 Y162.641 E56.72456
G1 X188.66 Y162.59 E56.72632
G1 X188.656 Y162.563 E56.72723
G1 X188.652 Y162.495 E56.7295
G1 X188.654 Y162.453 E56.7309
G1 X188.663 Y162.402 E56.73262
G1 X188.677 Y162.349 E56.73444
G1 X188.688 Y162.32 E56.73547
G1 X188.713 Y162.269 E56.73736
G1 X188.752 Y162.21 E56.73971
G1 X188.767 Y162.192 E56.74049
G1 X188.804 Y162.154 E56.74226
G1 X188.864 Y162.106 E56.74481
G1 X188.878 Y162.097 E56.74537
G1 X188.929 Y162.071 E56.74727
