;FLAVOR:Marlin
;TIME:16786
;Filament used: 10.5275m
;Layer height: 0.2
;MINX:62.174
;MINY:75.815
;MINZ:0.2
;MAXX:140.176
;MAXY:196.815
;MAXZ:46
;Generated with Cura_SteamEngine 4.7.1
M140 S70
M105
M190 S70
M104 S240
M105
M109 S240
M82 ;absolute extrusion mode
; Ender 3 Custom Start G-code
G92 E0 ; Reset Extruder
G28 ; Home all axes
G1 Z2.0 F3000 ; Move Z Axis up little to prevent scratching of Heat Bed
G1 X0.1 Y20 Z0.3 F5000.0 ; Move to start position
G1 X0.1 Y200.0 Z0.3 F1500.0 E15 ; Draw the first line
G1 X0.4 Y200.0 Z0.3 F5000.0 ; Move to side a little
G1 X0.4 Y20 Z0.3 F1500.0 E30 ; Draw the second line
G92 E0 ; Reset Extruder
G1 Z2.0 F3000 ; Move Z Axis up little to prevent scratching of Heat Bed
G1 X5 Y20 Z0.3 F5000.0 ; Move over to prevent blob squish
G92 E0
G92 E0
G1 F2700 E-5
;LAYER_COUNT:230
;LAYER:0
M107
G0 F6000 X66.272 Y78.805 Z0.2
;TYPE:SKIRT
G1 F2700 E0
G1 F900 X67.014 Y78.231 E0.0312
G1 X67.803 Y77.724 E0.06239
G1 X68.631 Y77.285 E0.09357
G1 X69.495 Y76.918 E0.12479
G1 X70.386 Y76.626 E0.15597
G1 X71.299 Y76.412 E0.18716
G1 X72.227 Y76.275 E0.21836
G1 X72.773 Y76.233 E0.23658
G1 X72.923 Y76.225 E0.24157
G1 X73.375 Y76.21 E0.25661
G1 X73.918 Y76.204 E0.27468
G1 X74.556 Y76.204 E0.2959
G1 X77.164 Y76.167 E0.38265
G1 X79.661 Y76.061 E0.46577
G1 X81.771 Y75.904 E0.53614
G1 X82.643 Y75.848 E0.56521
G1 X83.007 Y75.83 E0.57733
G1 X83.168 Y75.825 E0.58269
G1 X83.784 Y75.816 E0.60318
G1 X85.35 Y75.815 E0.65526
G1 X85.507 Y75.816 E0.66048
G1 X86.209 Y75.826 E0.68383
G1 X87.145 Y75.879 E0.71502
G1 X88.073 Y76.012 E0.7462
G1 X88.987 Y76.224 E0.7774
G1 X89.88 Y76.512 E0.80861
G1 X90.744 Y76.876 E0.83979
G1 X91.575 Y77.312 E0.87101
G1 X92.365 Y77.817 E0.90219
G1 X93.109 Y78.387 E0.93337
G1 X93.896 Y79.114 E0.969
G1 X94.012 Y79.232 E0.9745
G1 X94.641 Y79.928 E1.00571
G1 X95.208 Y80.675 E1.0369
G1 X95.709 Y81.468 E1.0681
G1 X96.157 Y82.336 E1.10058
G1 X96.794 Y83.718 E1.1512
G1 X97.895 Y86.013 E1.23586
G1 X99.042 Y88.239 E1.31915
G1 X100.268 Y90.466 E1.4037
G1 X101.526 Y92.601 E1.48612
G1 X102.88 Y94.758 E1.57083
G1 X104.271 Y96.841 E1.65413
G1 X105.736 Y98.906 E1.73834
G1 X107.243 Y100.908 E1.82169
G1 X108.81 Y102.871 E1.90523
G1 X110.45 Y104.81 E1.98969
G1 X112.114 Y106.669 E2.07268
G1 X113.845 Y108.497 E2.15641
G1 X115.636 Y110.282 E2.24051
G1 X117.451 Y111.993 E2.32347
G1 X119.353 Y113.685 E2.40814
G1 X121.264 Y115.295 E2.49125
G1 X123.225 Y116.85 E2.57449
G1 X125.27 Y118.381 E2.65946
G1 X127.326 Y119.831 E2.74314
G1 X129.403 Y121.211 E2.82608
G1 X131.543 Y122.546 E2.90997
G1 X133.743 Y123.833 E2.99474
G1 X133.941 Y123.945 E3.00231
G1 X134.548 Y124.295 E3.02561
G1 X135.339 Y124.797 E3.05677
G1 X136.086 Y125.366 E3.08801
G1 X136.865 Y126.08 E3.12315
G1 X136.978 Y126.194 E3.12849
G1 X137.61 Y126.888 E3.15971
G1 X138.179 Y127.633 E3.19089
G1 X138.684 Y128.423 E3.22207
G1 X139.119 Y129.254 E3.25327
G1 X139.482 Y130.119 E3.28447
G1 X139.77 Y131.012 E3.31568
G1 X139.98 Y131.926 E3.34687
G1 X140.112 Y132.854 E3.37805
G1 X140.16 Y133.567 E3.40182
G1 X140.165 Y133.715 E3.40674
G1 X140.17 Y133.952 E3.41463
G1 X140.176 Y134.495 E3.43269
G1 X140.175 Y153.148 E4.05309
G1 X140.165 Y153.85 E4.07644
G1 X140.112 Y154.786 E4.10762
G1 X139.979 Y155.714 E4.1388
G1 X139.767 Y156.628 E4.17001
G1 X139.479 Y157.521 E4.20122
G1 X139.115 Y158.385 E4.2324
G1 X138.679 Y159.216 E4.26361
G1 X138.174 Y160.006 E4.2948
G1 X137.604 Y160.75 E4.32597
G1 X136.878 Y161.537 E4.36158
G1 X136.759 Y161.654 E4.36713
G1 X136.063 Y162.282 E4.39831
G1 X135.316 Y162.849 E4.4295
G1 X134.523 Y163.35 E4.4607
G1 X133.646 Y163.802 E4.49352
G1 X132.761 Y164.209 E4.52592
G1 X131.955 Y164.566 E4.55524
G1 X129.68 Y165.653 E4.6391
G1 X127.456 Y166.793 E4.72222
G1 X125.249 Y168.005 E4.80596
G1 X123.052 Y169.294 E4.89069
G1 X120.955 Y170.603 E4.9729
G1 X118.833 Y172.014 E5.05766
G1 X116.794 Y173.456 E5.14072
G1 X114.763 Y174.979 E5.22516
G1 X112.798 Y176.542 E5.30867
G1 X110.883 Y178.154 E5.39192
G1 X108.984 Y179.848 E5.47656
G1 X107.175 Y181.555 E5.55929
G1 X105.385 Y183.344 E5.64346
G1 X103.664 Y185.162 E5.72672
G1 X101.984 Y187.042 E5.81058
G1 X100.359 Y188.969 E5.89442
G1 X98.769 Y190.964 E5.97927
G1 X97.906 Y192.106 E6.02688
G1 X97.782 Y192.267 E6.03364
G1 X97.61 Y192.486 E6.0429
G1 X96.737 Y193.47 E6.08665
G1 X96.624 Y193.583 E6.09197
G1 X95.933 Y194.217 E6.12316
G1 X95.191 Y194.791 E6.15436
G1 X94.402 Y195.298 E6.18555
G1 X93.574 Y195.737 E6.21672
G1 X92.71 Y196.104 E6.24795
G1 X91.819 Y196.396 E6.27913
G1 X90.906 Y196.61 E6.31032
G1 X89.978 Y196.747 E6.34152
G1 X89.217 Y196.799 E6.36689
G1 X89.069 Y196.804 E6.37182
G1 X88.832 Y196.809 E6.3797
G1 X88.289 Y196.815 E6.39776
G1 X87.049 Y196.814 E6.439
G1 X86.347 Y196.804 E6.46236
G1 X85.411 Y196.751 E6.49354
G1 X84.483 Y196.618 E6.52472
G1 X83.569 Y196.406 E6.55592
G1 X82.676 Y196.118 E6.58713
G1 X81.812 Y195.754 E6.61832
G1 X80.981 Y195.318 E6.64953
G1 X80.191 Y194.813 E6.68071
G1 X79.447 Y194.243 E6.71189
G1 X78.726 Y193.583 E6.7444
G1 X78.614 Y193.471 E6.74966
G1 X77.98 Y192.78 E6.78086
G1 X77.406 Y192.038 E6.81206
G1 X76.899 Y191.249 E6.84325
G1 X76.46 Y190.421 E6.87442
G1 X76.093 Y189.557 E6.90564
G1 X75.801 Y188.666 E6.93683
G1 X75.587 Y187.753 E6.96802
G1 X75.45 Y186.825 E6.99922
G1 X75.398 Y186.064 E7.02459
G1 X75.393 Y185.916 E7.02951
G1 X75.388 Y185.667 E7.0378
G1 X75.382 Y185.094 E7.05686
G1 X75.381 Y168.213 E7.61832
G1 X75.344 Y165.603 E7.70514
G1 X75.237 Y163.081 E7.7891
G1 X75.061 Y160.603 E7.87172
G1 X74.81 Y158.076 E7.95618
G1 X74.492 Y155.595 E8.03938
G1 X74.101 Y153.102 E8.12331
G1 X73.639 Y150.619 E8.20731
G1 X73.097 Y148.103 E8.29291
G1 X72.515 Y145.732 E8.37411
G1 X71.839 Y143.279 E8.45874
G1 X71.108 Y140.889 E8.54187
G1 X70.302 Y138.5 E8.62573
G1 X69.43 Y136.138 E8.70947
G1 X68.496 Y133.812 E8.79284
G1 X67.478 Y131.472 E8.87771
G1 X66.423 Y129.222 E8.96037
G1 X65.295 Y126.984 E9.04372
G1 X63.646 Y123.957 E9.15837
G1 X63.233 Y123.116 E9.18953
G1 X62.893 Y122.241 E9.22076
G1 X62.629 Y121.342 E9.25192
G1 X62.442 Y120.422 E9.28314
G1 X62.312 Y119.061 E9.32862
G1 X62.307 Y118.911 E9.33361
G1 X62.302 Y118.679 E9.34133
G1 X62.296 Y118.135 E9.35942
G1 X62.295 Y96.671 E10.07332
G1 X62.235 Y93.324 E10.18466
G1 X62.186 Y91.946 E10.23052
G1 X62.18 Y91.688 E10.2391
G1 X62.174 Y91.136 E10.25746
G1 X62.175 Y87.9 E10.36509
G1 X62.185 Y87.228 E10.38745
G1 X62.239 Y86.292 E10.41863
G1 X62.373 Y85.364 E10.44981
G1 X62.585 Y84.45 E10.48102
G1 X62.874 Y83.558 E10.51221
G1 X63.238 Y82.694 E10.54339
G1 X63.674 Y81.863 E10.5746
G1 X64.18 Y81.073 E10.60581
G1 X64.751 Y80.329 E10.637
G1 X65.406 Y79.614 E10.66925
G1 X65.581 Y79.439 E10.67748
G1 X66.272 Y78.805 E10.70867
G0 F6000 X66.542 Y79.1
G1 F900 X67.272 Y78.539 E10.73929
G1 X68.048 Y78.043 E10.76993
G1 X68.864 Y77.617 E10.80054
G1 X69.714 Y77.263 E10.83117
G1 X70.592 Y76.985 E10.8618
G1 X71.49 Y76.783 E10.89241
G1 X72.794 Y76.632 E10.93607
G1 X72.944 Y76.624 E10.94107
G1 X73.379 Y76.61 E10.95554
G1 X73.918 Y76.604 E10.97347
G1 X74.562 Y76.604 E10.99489
G1 X77.187 Y76.567 E11.08221
G1 X79.646 Y76.462 E11.16407
G1 X81.686 Y76.31 E11.23211
G1 X82.669 Y76.247 E11.26487
G1 X83.019 Y76.23 E11.27653
G1 X83.379 Y76.221 E11.2885
G1 X83.918 Y76.215 E11.30643
G1 X85.35 Y76.215 E11.35406
G1 X86.203 Y76.226 E11.38243
G1 X87.122 Y76.279 E11.41305
G1 X88.033 Y76.412 E11.44367
G1 X88.929 Y76.623 E11.47429
G1 X89.804 Y76.911 E11.50493
G1 X90.65 Y77.274 E11.53554
G1 X91.461 Y77.709 E11.56615
G1 X92.232 Y78.213 E11.59679
G1 X92.956 Y78.781 E11.6274
G1 X93.611 Y79.394 E11.65723
G1 X93.727 Y79.512 E11.66274
G1 X94.343 Y80.196 E11.69335
G1 X94.898 Y80.931 E11.72399
G1 X95.387 Y81.711 E11.75461
G1 X95.794 Y82.504 E11.78425
G1 X96.434 Y83.893 E11.83512
G1 X97.536 Y86.19 E11.91986
G1 X98.693 Y88.436 E12.00389
G1 X99.916 Y90.657 E12.08822
G1 X101.186 Y92.812 E12.17141
G1 X102.526 Y94.946 E12.25522
G1 X103.945 Y97.072 E12.34024
G1 X105.419 Y99.149 E12.42495
G1 X106.914 Y101.135 E12.50763
G1 X108.509 Y103.133 E12.59266
G1 X110.148 Y105.072 E12.6771
G1 X111.826 Y106.945 E12.76074
G1 X113.556 Y108.772 E12.84443
G1 X115.362 Y110.573 E12.92926
G1 X117.193 Y112.3 E13.01297
G1 X119.075 Y113.973 E13.09673
G1 X121.025 Y115.615 E13.18151
G1 X123 Y117.182 E13.26537
G1 X124.992 Y118.674 E13.34815
G1 X127.096 Y120.158 E13.43378
G1 X129.191 Y121.55 E13.51744
G1 X131.361 Y122.904 E13.60251
G1 X133.544 Y124.181 E13.68663
G1 X133.741 Y124.291 E13.69413
G1 X134.348 Y124.641 E13.71744
G1 X135.125 Y125.135 E13.74806
G1 X135.856 Y125.695 E13.77869
G1 X136.581 Y126.362 E13.81146
G1 X136.694 Y126.476 E13.81679
G1 X137.313 Y127.157 E13.8474
G1 X137.871 Y127.89 E13.87804
G1 X138.363 Y128.668 E13.90866
G1 X138.786 Y129.486 E13.93929
G1 X139.136 Y130.337 E13.96989
G1 X139.411 Y131.216 E14.00053
G1 X139.608 Y132.115 E14.03114
G1 X139.727 Y133.028 E14.06176
G1 X139.76 Y133.58 E14.08015
G1 X139.765 Y133.728 E14.08508
G1 X139.77 Y133.956 E14.09266
G1 X139.776 Y134.495 E14.11059
G1 X139.775 Y153.142 E14.73079
G1 X139.765 Y153.844 E14.75414
G1 X139.712 Y154.763 E14.78476
G1 X139.579 Y155.674 E14.81538
G1 X139.368 Y156.57 E14.846
G1 X139.08 Y157.445 E14.87664
G1 X138.717 Y158.291 E14.90726
G1 X138.282 Y159.102 E14.93786
G1 X137.778 Y159.873 E14.9685
G1 X137.21 Y160.597 E14.99911
G1 X136.598 Y161.252 E15.02892
G1 X136.479 Y161.369 E15.03447
G1 X135.795 Y161.985 E15.06509
G1 X135.06 Y162.54 E15.09572
G1 X134.28 Y163.028 E15.12632
G1 X133.479 Y163.439 E15.15627
G1 X132.599 Y163.843 E15.18847
G1 X131.799 Y164.197 E15.21757
G1 X129.493 Y165.299 E15.30258
G1 X127.274 Y166.436 E15.3855
G1 X125.044 Y167.661 E15.47013
G1 X122.859 Y168.943 E15.55439
G1 X120.727 Y170.274 E15.63798
G1 X118.627 Y171.671 E15.72187
G1 X116.545 Y173.142 E15.80666
G1 X114.52 Y174.661 E15.89085
G1 X112.536 Y176.239 E15.97517
G1 X110.642 Y177.834 E16.05753
G1 X108.707 Y179.56 E16.14377
G1 X106.883 Y181.28 E16.22715
G1 X105.113 Y183.05 E16.31041
G1 X103.357 Y184.905 E16.39537
G1 X101.681 Y186.781 E16.47904
G1 X100.041 Y188.724 E16.5636
G1 X98.472 Y190.694 E16.64737
G1 X97.587 Y191.865 E16.69619
G1 X97.295 Y192.239 E16.71197
G1 X96.454 Y193.187 E16.75412
G1 X96.341 Y193.3 E16.75943
G1 X95.663 Y193.922 E16.79004
G1 X94.933 Y194.483 E16.82066
G1 X94.157 Y194.979 E16.85129
G1 X93.341 Y195.405 E16.8819
G1 X92.491 Y195.759 E16.91253
G1 X91.613 Y196.037 E16.94316
G1 X90.715 Y196.239 E16.97377
G1 X89.802 Y196.362 E17.00442
G1 X89.204 Y196.399 E17.02434
G1 X89.056 Y196.404 E17.02927
G1 X88.828 Y196.409 E17.03685
G1 X88.289 Y196.415 E17.05478
G1 X87.055 Y196.414 E17.09583
G1 X86.353 Y196.404 E17.11918
G1 X85.434 Y196.351 E17.14979
G1 X84.523 Y196.218 E17.18041
G1 X83.627 Y196.007 E17.21103
G1 X82.752 Y195.719 E17.24167
G1 X81.906 Y195.356 E17.27229
G1 X81.095 Y194.921 E17.3029
G1 X80.324 Y194.417 E17.33353
G1 X79.6 Y193.849 E17.36414
G1 X79.009 Y193.3 E17.39097
G1 X78.897 Y193.188 E17.39624
G1 X78.275 Y192.51 E17.42684
G1 X77.714 Y191.78 E17.45746
G1 X77.218 Y191.004 E17.48809
G1 X76.792 Y190.188 E17.51871
G1 X76.438 Y189.338 E17.54933
G1 X76.16 Y188.46 E17.57997
G1 X75.958 Y187.562 E17.61058
G1 X75.835 Y186.649 E17.64122
G1 X75.798 Y186.051 E17.66115
G1 X75.793 Y185.903 E17.66607
G1 X75.788 Y185.662 E17.67409
G1 X75.782 Y185.094 E17.69298
G1 X75.781 Y168.207 E18.25465
G1 X75.744 Y165.581 E18.342
G1 X75.637 Y163.072 E18.42552
G1 X75.46 Y160.568 E18.50901
G1 X75.207 Y158.027 E18.59395
G1 X74.89 Y155.549 E18.67704
G1 X74.488 Y152.991 E18.76316
G1 X74.038 Y150.574 E18.84493
G1 X73.491 Y148.028 E18.93154
G1 X72.892 Y145.593 E19.01495
G1 X72.233 Y143.202 E19.09744
G1 X71.483 Y140.749 E19.18275
G1 X70.684 Y138.382 E19.26584
G1 X69.8 Y135.987 E19.35075
G1 X68.858 Y133.64 E19.43487
G1 X67.855 Y131.334 E19.51851
G1 X66.777 Y129.038 E19.60287
G1 X65.64 Y126.78 E19.68696
G1 X63.998 Y123.766 E19.80111
G1 X63.593 Y122.939 E19.83174
G1 X63.261 Y122.08 E19.86237
G1 X63.005 Y121.196 E19.89298
G1 X62.827 Y120.293 E19.92359
G1 X62.712 Y119.048 E19.96518
G1 X62.702 Y118.674 E19.97762
G1 X62.696 Y118.134 E19.99558
G1 X62.695 Y96.664 E20.70968
G1 X62.635 Y93.303 E20.82148
G1 X62.586 Y91.932 E20.86711
G1 X62.58 Y91.683 E20.8754
G1 X62.574 Y91.136 E20.89359
G1 X62.575 Y87.906 E21.00102
G1 X62.585 Y87.234 E21.02337
G1 X62.639 Y86.315 E21.05399
G1 X62.772 Y85.404 E21.08461
G1 X62.984 Y84.508 E21.11524
G1 X63.273 Y83.634 E21.14585
G1 X63.636 Y82.788 E21.17647
G1 X64.071 Y81.977 E21.20708
G1 X64.576 Y81.207 E21.23771
G1 X65.145 Y80.483 E21.26834
G1 X65.689 Y79.897 E21.29493
G1 X65.864 Y79.722 E21.30316
G1 X66.542 Y79.1 E21.33377
G0 F6000 X66.813 Y79.395
G1 F900 X67.53 Y78.846 E21.3638
G1 X68.294 Y78.364 E21.39385
G1 X69.097 Y77.95 E21.42389
G1 X69.933 Y77.61 E21.45391
G1 X70.796 Y77.344 E21.48395
G1 X71.679 Y77.156 E21.51397
G1 X72.816 Y77.031 E21.55202
G1 X72.966 Y77.023 E21.55702
G1 X73.384 Y77.01 E21.57092
G1 X73.918 Y77.004 E21.58869
G1 X74.568 Y77.004 E21.61031
G1 X77.174 Y76.967 E21.69699
G1 X79.693 Y76.86 E21.78085
G1 X81.822 Y76.702 E21.85185
G1 X82.694 Y76.646 E21.88092
G1 X83.031 Y76.63 E21.89214
G1 X83.384 Y76.621 E21.90388
G1 X83.918 Y76.615 E21.92164
G1 X85.35 Y76.615 E21.96927
G1 X86.197 Y76.626 E21.99745
G1 X87.099 Y76.679 E22.0275
G1 X87.992 Y76.811 E22.05752
G1 X88.87 Y77.022 E22.08756
G1 X89.726 Y77.31 E22.1176
G1 X90.554 Y77.672 E22.14765
G1 X91.346 Y78.106 E22.17769
G1 X92.096 Y78.609 E22.20773
G1 X92.799 Y79.175 E22.23774
G1 X93.326 Y79.674 E22.26188
G1 X93.442 Y79.792 E22.26739
G1 X94.046 Y80.464 E22.29744
G1 X94.588 Y81.186 E22.32747
G1 X95.064 Y81.953 E22.35749
G1 X95.43 Y82.671 E22.38429
G1 X96.05 Y84.018 E22.43361
G1 X97.178 Y86.367 E22.52028
G1 X98.345 Y88.633 E22.60506
G1 X99.564 Y90.847 E22.68912
G1 X100.848 Y93.025 E22.77321
G1 X102.208 Y95.192 E22.8583
G1 X103.619 Y97.304 E22.94278
G1 X105.076 Y99.359 E23.02657
G1 X106.611 Y101.397 E23.11143
G1 X108.206 Y103.396 E23.19649
G1 X109.827 Y105.314 E23.28001
G1 X111.538 Y107.223 E23.36528
G1 X113.265 Y109.048 E23.44885
G1 X115.07 Y110.847 E23.53361
G1 X116.936 Y112.606 E23.6189
G1 X118.814 Y114.277 E23.70251
G1 X120.764 Y115.919 E23.7873
G1 X122.757 Y117.5 E23.87191
G1 X124.781 Y119.015 E23.956
G1 X126.85 Y120.474 E24.0402
G1 X129.004 Y121.906 E24.12623
G1 X131.127 Y123.23 E24.20945
G1 X133.326 Y124.516 E24.29417
G1 X133.541 Y124.638 E24.3024
G1 X134.148 Y124.988 E24.3257
G1 X134.91 Y125.473 E24.35574
G1 X135.625 Y126.024 E24.38577
G1 X136.297 Y126.643 E24.41615
G1 X136.41 Y126.757 E24.42149
G1 X137.017 Y127.426 E24.45154
G1 X137.562 Y128.146 E24.48157
G1 X138.042 Y128.912 E24.51164
G1 X138.451 Y129.716 E24.54164
G1 X138.788 Y130.554 E24.57168
G1 X139.05 Y131.419 E24.60174
G1 X139.234 Y132.303 E24.63178
G1 X139.36 Y133.594 E24.67492
G1 X139.37 Y133.961 E24.68713
G1 X139.376 Y134.495 E24.70489
G1 X139.375 Y153.136 E25.32489
G1 X139.365 Y153.838 E25.34824
G1 X139.312 Y154.74 E25.3783
G1 X139.18 Y155.633 E25.40832
G1 X138.969 Y156.511 E25.43835
G1 X138.681 Y157.367 E25.46839
G1 X138.319 Y158.195 E25.49845
G1 X137.885 Y158.987 E25.52849
G1 X137.382 Y159.737 E25.55852
G1 X136.816 Y160.44 E25.58854
G1 X136.317 Y160.966 E25.61266
G1 X136.198 Y161.083 E25.61821
G1 X135.527 Y161.687 E25.64823
G1 X134.805 Y162.23 E25.67828
G1 X134.037 Y162.706 E25.70833
G1 X133.312 Y163.076 E25.73541
G1 X132.569 Y163.418 E25.76261
G1 X131.643 Y163.828 E25.79629
G1 X129.327 Y164.934 E25.88166
G1 X127.064 Y166.095 E25.96625
G1 X124.871 Y167.299 E26.04946
G1 X122.651 Y168.602 E26.13508
G1 X120.516 Y169.935 E26.21879
G1 X118.38 Y171.355 E26.3041
G1 X116.32 Y172.811 E26.388
G1 X114.276 Y174.344 E26.47298
G1 X112.293 Y175.921 E26.55725
G1 X110.347 Y177.56 E26.64187
G1 X108.468 Y179.236 E26.72562
G1 X106.609 Y180.99 E26.81063
G1 X104.804 Y182.794 E26.89551
G1 X103.069 Y184.627 E26.97945
G1 X101.375 Y186.522 E27.06399
G1 X99.738 Y188.462 E27.14842
G1 X98.16 Y190.444 E27.23268
G1 X97.268 Y191.624 E27.28188
G1 X96.981 Y191.992 E27.2974
G1 X96.171 Y192.904 E27.33797
G1 X96.058 Y193.017 E27.34329
G1 X95.392 Y193.627 E27.37332
G1 X94.675 Y194.176 E27.40336
G1 X93.911 Y194.658 E27.43341
G1 X93.108 Y195.072 E27.46345
G1 X92.272 Y195.412 E27.49347
G1 X91.409 Y195.678 E27.52351
G1 X90.526 Y195.866 E27.55353
G1 X89.19 Y195.999 E27.59819
