;FLAVOR:Marlin
;TIME:13963
;Filament used: 8.53028m
;Layer height: 0.2
;MINX:59.022
;MINY:71.517
;MINZ:0.2
;MAXX:185.416
;MAXY:188.564
;MAXZ:52.2
;Generated with Cura_SteamEngine 4.7.1
M140 S70
M105
M190 S70
M104 S240
M105
M109 S240
M82 ;absolute extrusion mode
; Ender 3 Custom Start G-code
G92 E0 ; Reset Extruder
G28 ; Home all axes
G1 Z2.0 F3000 ; Move Z Axis up little to prevent scratching of Heat Bed
G1 X0.1 Y20 Z0.3 F5000.0 ; Move to start position
G1 X0.1 Y200.0 Z0.3 F1500.0 E15 ; Draw the first line
G1 X0.4 Y200.0 Z0.3 F5000.0 ; Move to side a little
G1 X0.4 Y20 Z0.3 F1500.0 E30 ; Draw the second line
G92 E0 ; Reset Extruder
G1 Z2.0 F3000 ; Move Z Axis up little to prevent scratching of Heat Bed
G1 X5 Y20 Z0.3 F5000.0 ; Move over to prevent blob squish
G92 E0
G92 E0
G1 F2700 E-5
;LAYER_COUNT:261
;LAYER:0
M107
G0 F6000 X79.033 Y84.715 Z0.2
;TYPE:SKIRT
G1 F2700 E0
G1 F900 X79.748 Y84.108 E0.03119
G1 X80.271 Y83.726 E0.05274
G1 X81.155 Y83.119 E0.0884
G1 X81.343 Y82.993 E0.09593
G1 X91.739 Y76.164 E0.50963
G1 X91.875 Y76.076 E0.51502
G1 X92.493 Y75.683 E0.53938
G1 X93.305 Y75.214 E0.57057
G1 X94.155 Y74.816 E0.60178
G1 X95.035 Y74.491 E0.63298
G1 X96.165 Y74.194 E0.67184
G1 X97.182 Y73.984 E0.70638
G1 X108.502 Y71.827 E1.08966
G1 X109.352 Y71.678 E1.11836
G1 X110.281 Y71.555 E1.14953
G1 X111.552 Y71.517 E1.19182
G1 X111.624 Y71.519 E1.19422
G1 X112.56 Y71.585 E1.22543
G1 X113.068 Y71.655 E1.24248
G1 X113.537 Y71.732 E1.25829
G1 X125.222 Y73.959 E1.65393
G1 X125.406 Y73.995 E1.66017
G1 X126.404 Y74.203 E1.69408
G1 X127.314 Y74.434 E1.7253
G1 X128.2 Y74.741 E1.75649
G1 X129.057 Y75.122 E1.78768
G1 X129.896 Y75.586 E1.81957
G1 X130.094 Y75.707 E1.82729
G1 X130.34 Y75.862 E1.83696
G1 X130.576 Y76.015 E1.84632
G1 X141.485 Y83.18 E2.28041
G1 X142.16 Y83.636 E2.30751
G1 X142.913 Y84.195 E2.3387
G1 X143.616 Y84.816 E2.3699
G1 X144.264 Y85.494 E2.40109
G1 X145.058 Y86.516 E2.44413
G1 X145.634 Y87.355 E2.47798
G1 X145.759 Y87.542 E2.48546
G1 X152.683 Y98.085 E2.90499
G1 X153.073 Y98.695 E2.92907
G1 X153.544 Y99.506 E2.96026
G1 X153.944 Y100.354 E2.99144
G1 X154.271 Y101.233 E3.02264
G1 X154.528 Y102.169 E3.05492
G1 X154.608 Y102.533 E3.06732
G1 X154.73 Y103.137 E3.08781
G1 X155.486 Y107.099 E3.22197
G1 X156.012 Y109.664 E3.30905
G1 X156.581 Y112.086 E3.3918
G1 X157.237 Y114.56 E3.47693
G1 X157.949 Y116.968 E3.56045
G1 X158.725 Y119.34 E3.64346
G1 X159.584 Y121.74 E3.72824
G1 X160.494 Y124.069 E3.81141
G1 X161.464 Y126.361 E3.89418
G1 X162.528 Y128.686 E3.97923
G1 X163.631 Y130.93 E4.06239
G1 X164.804 Y133.153 E4.14599
G1 X166.054 Y135.367 E4.23055
G1 X167.324 Y137.475 E4.31241
G1 X168.721 Y139.654 E4.3985
G1 X170.109 Y141.689 E4.48043
G1 X171.6 Y143.747 E4.56495
G1 X173.138 Y145.748 E4.64889
G1 X174.725 Y147.698 E4.73252
G1 X176.338 Y149.567 E4.81463
G1 X178.564 Y151.988 E4.92401
G1 X179.39 Y152.856 E4.96387
G1 X179.83 Y153.347 E4.9858
G1 X180.484 Y154.122 E5.01952
G1 X180.609 Y154.273 E5.02604
G1 X181 Y154.755 E5.04669
G1 X181.417 Y155.284 E5.06909
G1 X181.965 Y156.045 E5.10028
G1 X182.458 Y156.87 E5.13225
G1 X182.866 Y157.626 E5.16082
G1 X183.14 Y158.15 E5.18049
G1 X183.211 Y158.288 E5.18565
G1 X183.551 Y158.965 E5.21084
G1 X183.936 Y159.821 E5.24206
G1 X184.255 Y160.733 E5.2742
G1 X184.512 Y161.591 E5.30399
G1 X184.667 Y162.133 E5.32274
G1 X184.866 Y162.86 E5.34781
G1 X185.075 Y163.774 E5.37899
G1 X185.175 Y164.431 E5.4011
G1 X185.206 Y164.685 E5.40961
G1 X185.254 Y165.141 E5.42486
G1 X185.339 Y166.067 E5.45578
G1 X185.384 Y166.652 E5.4753
G1 X185.416 Y167.59 E5.50652
G1 X185.388 Y168.275 E5.52932
G1 X185.306 Y169.43 E5.56783
G1 X185.273 Y169.812 E5.58058
G1 X185.194 Y170.556 E5.60547
G1 X185.141 Y170.972 E5.61942
G1 X184.905 Y172.157 E5.6596
G1 X184.852 Y172.363 E5.66668
G1 X184.793 Y172.582 E5.67422
G1 X184.717 Y172.854 E5.68361
G1 X184.506 Y173.591 E5.70911
G1 X184.248 Y174.446 E5.73882
G1 X183.938 Y175.331 E5.77
G1 X183.56 Y176.175 E5.80076
G1 X183.252 Y176.791 E5.82367
G1 X182.837 Y177.594 E5.85373
G1 X182.504 Y178.216 E5.8772
G1 X182.026 Y179.023 E5.9084
G1 X181.459 Y179.815 E5.94079
G1 X180.809 Y180.642 E5.97578
G1 X180.502 Y181.02 E5.99197
G1 X179.962 Y181.667 E6.02
G1 X179.331 Y182.36 E6.05118
G1 X178.616 Y183.02 E6.08354
G1 X177.891 Y183.632 E6.1151
G1 X177.718 Y183.775 E6.12256
G1 X177.269 Y184.138 E6.14177
G1 X176.747 Y184.551 E6.1639
G1 X175.988 Y185.101 E6.19508
G1 X175.145 Y185.605 E6.22775
G1 X174.227 Y186.099 E6.26242
G1 X173.826 Y186.307 E6.27744
G1 X173.033 Y186.705 E6.30696
G1 X172.178 Y187.088 E6.33812
G1 X171.284 Y187.401 E6.36962
G1 X170.459 Y187.649 E6.39827
G1 X170.023 Y187.775 E6.41337
G1 X169.143 Y188.016 E6.44371
G1 X168.228 Y188.224 E6.47492
G1 X167.625 Y188.317 E6.49522
G1 X167.371 Y188.349 E6.50373
G1 X167.022 Y188.387 E6.51541
G1 X166.2 Y188.464 E6.54287
G1 X166.025 Y188.479 E6.54871
G1 X165.355 Y188.531 E6.57106
G1 X164.418 Y188.564 E6.60224
G1 X163.722 Y188.536 E6.62541
G1 X162.447 Y188.444 E6.66793
G1 X162.162 Y188.417 E6.67745
G1 X161.455 Y188.342 E6.7011
G1 X160.527 Y188.203 E6.73231
G1 X159.982 Y188.083 E6.75087
G1 X159.763 Y188.029 E6.75837
G1 X159.44 Y187.944 E6.76948
G1 X159.122 Y187.855 E6.78046
G1 X158.399 Y187.647 E6.80548
G1 X157.559 Y187.393 E6.83467
G1 X156.674 Y187.083 E6.86586
G1 X155.848 Y186.713 E6.89596
G1 X155.21 Y186.395 E6.91967
G1 X155.045 Y186.311 E6.92583
G1 X154.415 Y185.983 E6.94946
G1 X153.793 Y185.65 E6.97292
G1 X152.986 Y185.172 E7.00412
G1 X152.186 Y184.599 E7.03685
G1 X151.371 Y183.957 E7.07135
G1 X150.843 Y183.527 E7.094
G1 X149.573 Y182.465 E7.14907
G1 X147.605 Y180.866 E7.2334
G1 X145.59 Y179.321 E7.31786
G1 X143.535 Y177.837 E7.40216
G1 X141.471 Y176.432 E7.48521
G1 X139.361 Y175.082 E7.56852
G1 X137.185 Y173.776 E7.65293
G1 X135.01 Y172.552 E7.73594
G1 X132.748 Y171.361 E7.82097
G1 X130.507 Y170.262 E7.90398
G1 X128.229 Y169.223 E7.98726
G1 X125.95 Y168.261 E8.06953
G1 X123.551 Y167.327 E8.15516
G1 X121.174 Y166.479 E8.2391
G1 X118.798 Y165.706 E8.3222
G1 X116.382 Y164.994 E8.40598
G1 X113.931 Y164.347 E8.49029
G1 X111.538 Y163.787 E8.57203
G1 X108.966 Y163.26 E8.65935
G1 X97.292 Y161.035 E9.05462
G1 X97.104 Y160.998 E9.06099
G1 X96.136 Y160.796 E9.09388
G1 X95.227 Y160.565 E9.12508
G1 X94.341 Y160.258 E9.15626
G1 X93.484 Y159.877 E9.18746
G1 X92.647 Y159.414 E9.21927
G1 X92.449 Y159.293 E9.22699
G1 X92.203 Y159.138 E9.23666
G1 X91.967 Y158.985 E9.24602
G1 X81.058 Y151.82 E9.68011
G1 X80.914 Y151.724 E9.68587
G1 X80.346 Y151.338 E9.70871
G1 X79.363 Y150.586 E9.74988
G1 X78.678 Y149.946 E9.78106
G1 X78.254 Y149.489 E9.80179
G1 X77.365 Y148.475 E9.84664
G1 X77.079 Y148.14 E9.86129
G1 X75.366 Y146.248 E9.94618
G1 X73.637 Y144.444 E10.02929
G1 X71.847 Y142.681 E10.11285
G1 X69.998 Y140.956 E10.19696
G1 X68.124 Y139.309 E10.27994
G1 X66.183 Y137.696 E10.36388
G1 X64.147 Y136.098 E10.44996
G1 X63.708 Y135.769 E10.46821
G1 X63.492 Y135.603 E10.47727
G1 X63.331 Y135.476 E10.48409
G1 X62.366 Y134.618 E10.52704
G1 X62.254 Y134.506 E10.53231
G1 X61.62 Y133.815 E10.5635
G1 X61.046 Y133.073 E10.5947
G1 X60.539 Y132.284 E10.62589
G1 X60.1 Y131.456 E10.65706
G1 X59.733 Y130.592 E10.68829
G1 X59.441 Y129.701 E10.71947
G1 X59.227 Y128.788 E10.75066
G1 X59.09 Y127.86 E10.78186
G1 X59.038 Y127.099 E10.80723
G1 X59.033 Y126.951 E10.81216
G1 X59.028 Y126.714 E10.82004
G1 X59.022 Y126.171 E10.8381
G1 X59.023 Y108.017 E11.44191
G1 X59.033 Y107.315 E11.46526
G1 X59.086 Y106.379 E11.49644
G1 X59.219 Y105.451 E11.52762
G1 X59.431 Y104.537 E11.55883
G1 X59.719 Y103.644 E11.59003
G1 X60.083 Y102.78 E11.62122
G1 X60.519 Y101.949 E11.65243
G1 X61.024 Y101.159 E11.68361
G1 X61.594 Y100.415 E11.71479
G1 X62.285 Y99.662 E11.74878
G1 X62.409 Y99.539 E11.75459
G1 X63.103 Y98.908 E11.78579
G1 X63.681 Y98.457 E11.81017
G1 X64.563 Y97.815 E11.84645
G1 X66.66 Y96.241 E11.93366
G1 X68.629 Y94.675 E12.01734
G1 X70.561 Y93.045 E12.10141
G1 X72.416 Y91.389 E12.18412
G1 X74.266 Y89.642 E12.26875
G1 X76.035 Y87.873 E12.35196
G1 X78.171 Y85.6 E12.4557
G1 X78.372 Y85.38 E12.46561
G1 X79.033 Y84.715 E12.4968
G0 F6000 X79.317 Y84.997
G1 F900 X80.02 Y84.403 E12.52741
G1 X80.498 Y84.056 E12.54705
G1 X81.382 Y83.449 E12.58272
G1 X81.562 Y83.327 E12.58995
G1 X91.958 Y76.498 E13.00365
G1 X92.708 Y76.02 E13.03323
G1 X93.506 Y75.561 E13.06385
G1 X94.34 Y75.172 E13.09446
G1 X95.205 Y74.857 E13.12508
G1 X96.246 Y74.585 E13.16086
G1 X97.091 Y74.41 E13.18956
G1 X97.257 Y74.377 E13.19519
G1 X108.577 Y72.22 E13.57847
G1 X109.421 Y72.072 E13.60697
G1 X110.333 Y71.952 E13.63757
G1 X111.541 Y71.917 E13.67776
G1 X111.613 Y71.919 E13.68016
G1 X112.532 Y71.985 E13.7108
G1 X113.004 Y72.05 E13.72665
G1 X113.466 Y72.126 E13.74222
G1 X113.682 Y72.166 E13.74953
G1 X125.147 Y74.352 E14.13773
G1 X125.325 Y74.387 E14.14376
G1 X126.323 Y74.595 E14.17767
G1 X127.215 Y74.822 E14.20828
G1 X128.084 Y75.125 E14.23889
G1 X128.924 Y75.503 E14.26953
G1 X129.687 Y75.927 E14.29856
G1 X129.885 Y76.048 E14.30628
G1 X130.123 Y76.198 E14.31563
G1 X130.356 Y76.349 E14.32487
G1 X141.393 Y83.599 E14.76408
G1 X141.936 Y83.967 E14.78589
G1 X142.675 Y84.516 E14.81651
G1 X143.363 Y85.128 E14.84714
G1 X143.996 Y85.796 E14.87775
G1 X144.728 Y86.743 E14.91756
G1 X145.304 Y87.582 E14.95141
G1 X145.425 Y87.762 E14.95862
G1 X152.346 Y98.3 E15.37795
G1 X152.736 Y98.91 E15.40203
G1 X153.198 Y99.707 E15.43267
G1 X153.588 Y100.54 E15.46326
G1 X153.906 Y101.405 E15.49391
G1 X154.139 Y102.258 E15.52332
G1 X154.163 Y102.363 E15.52691
G1 X154.216 Y102.612 E15.53537
G1 X154.337 Y103.211 E15.5557
G1 X155.098 Y107.203 E15.69086
G1 X155.617 Y109.731 E15.7767
G1 X156.199 Y112.208 E15.86133
G1 X156.85 Y114.661 E15.94574
G1 X157.561 Y117.068 E16.02922
G1 X158.355 Y119.494 E16.11412
G1 X159.195 Y121.841 E16.19703
G1 X160.129 Y124.234 E16.28247
G1 X161.109 Y126.548 E16.36605
G1 X162.156 Y128.836 E16.44974
G1 X163.283 Y131.129 E16.53472
G1 X164.445 Y133.33 E16.6175
G1 X165.697 Y135.548 E16.70221
G1 X167.004 Y137.717 E16.78644
G1 X168.37 Y139.849 E16.87065
G1 X169.799 Y141.943 E16.95497
G1 X171.274 Y143.98 E17.03862
G1 X172.812 Y145.981 E17.12256
G1 X174.428 Y147.966 E17.20769
G1 X176.054 Y149.85 E17.29047
G1 X178.262 Y152.252 E17.39898
G1 X179.1 Y153.132 E17.4394
G1 X179.524 Y153.605 E17.46053
G1 X180.178 Y154.38 E17.49426
G1 X180.299 Y154.526 E17.50056
G1 X180.686 Y155.003 E17.52099
G1 X181.103 Y155.532 E17.5434
G1 X181.641 Y156.279 E17.57401
G1 X182.106 Y157.06 E17.60425
G1 X182.514 Y157.816 E17.63282
G1 X182.854 Y158.468 E17.65728
G1 X183.194 Y159.145 E17.68247
G1 X183.571 Y159.985 E17.7131
G1 X183.872 Y160.848 E17.7435
G1 X184.091 Y161.576 E17.76878
G1 X184.281 Y162.238 E17.79169
G1 X184.48 Y162.965 E17.81676
G1 X184.684 Y163.863 E17.84739
G1 X184.778 Y164.48 E17.86814
G1 X184.809 Y164.734 E17.87666
G1 X184.856 Y165.178 E17.89151
G1 X184.94 Y166.098 E17.92223
G1 X184.985 Y166.683 E17.94175
G1 X185.015 Y167.603 E17.97236
G1 X184.989 Y168.247 E17.9938
G1 X184.907 Y169.402 E18.03231
G1 X184.875 Y169.77 E18.0446
G1 X184.796 Y170.514 E18.06948
G1 X184.745 Y170.915 E18.08293
G1 X184.518 Y172.057 E18.12165
G1 X184.465 Y172.263 E18.12873
G1 X184.408 Y172.475 E18.13603
G1 X184.333 Y172.744 E18.14532
G1 X184.122 Y173.481 E18.17082
G1 X183.865 Y174.33 E18.20032
G1 X183.56 Y175.199 E18.23095
G1 X183.202 Y175.996 E18.26001
G1 X182.829 Y176.74 E18.28769
G1 X182.484 Y177.405 E18.31261
G1 X182.151 Y178.027 E18.33607
G1 X181.682 Y178.819 E18.36669
G1 X181.145 Y179.568 E18.39734
G1 X180.609 Y180.251 E18.42622
G1 X180.498 Y180.39 E18.43213
G1 X180.097 Y180.882 E18.45325
G1 X179.655 Y181.411 E18.47617
G1 X179.035 Y182.091 E18.50678
G1 X178.358 Y182.714 E18.53738
G1 X177.633 Y183.326 E18.56894
G1 X177.466 Y183.464 E18.57614
G1 X177.021 Y183.824 E18.59518
G1 X176.499 Y184.237 E18.61732
G1 X175.753 Y184.776 E18.64793
G1 X174.955 Y185.253 E18.67885
G1 X174.195 Y185.663 E18.70757
G1 X173.642 Y185.951 E18.72831
G1 X173.507 Y186.02 E18.73335
G1 X172.854 Y186.347 E18.75764
G1 X172.014 Y186.723 E18.78825
G1 X171.168 Y187.018 E18.81805
G1 X170.465 Y187.23 E18.84247
G1 X169.757 Y187.434 E18.86698
G1 X169.038 Y187.63 E18.89177
G1 X168.14 Y187.833 E18.92239
G1 X167.575 Y187.92 E18.9414
G1 X167.321 Y187.952 E18.94992
G1 X166.985 Y187.989 E18.96116
G1 X166.163 Y188.066 E18.98862
G1 X165.324 Y188.132 E19.01661
G1 X164.404 Y188.164 E19.04723
G1 X163.751 Y188.137 E19.06897
G1 X162.67 Y188.06 E19.10501
G1 X162.381 Y188.036 E19.11466
G1 X162.204 Y188.019 E19.12057
G1 X161.497 Y187.944 E19.14422
G1 X160.586 Y187.807 E19.17486
G1 X160.077 Y187.695 E19.19219
G1 X159.858 Y187.641 E19.19969
G1 X159.548 Y187.559 E19.21036
G1 X159.232 Y187.471 E19.22127
G1 X158.36 Y187.219 E19.25146
G1 X157.675 Y187.011 E19.27527
G1 X156.807 Y186.705 E19.30588
G1 X156.026 Y186.355 E19.33435
G1 X155.388 Y186.037 E19.35806
G1 X154.604 Y185.63 E19.38744
G1 X153.982 Y185.297 E19.4109
G1 X153.19 Y184.828 E19.44152
G1 X152.433 Y184.285 E19.4725
G1 X151.75 Y183.748 E19.5014
G1 X151.22 Y183.319 E19.52408
G1 X149.874 Y182.195 E19.5824
G1 X147.833 Y180.537 E19.66986
G1 X145.822 Y178.995 E19.75415
G1 X143.772 Y177.514 E19.83826
G1 X141.705 Y176.108 E19.92141
G1 X139.561 Y174.735 E20.00609
G1 X137.393 Y173.434 E20.09018
G1 X135.187 Y172.192 E20.17439
G1 X132.946 Y171.013 E20.25861
G1 X130.699 Y169.912 E20.34183
G1 X128.372 Y168.85 E20.42691
G1 X126.085 Y167.884 E20.50948
G1 X123.693 Y166.953 E20.59485
G1 X121.316 Y166.105 E20.67879
G1 X118.898 Y165.318 E20.76337
G1 X116.492 Y164.609 E20.84679
G1 X114.01 Y163.954 E20.93217
G1 X111.646 Y163.4 E21.01293
G1 X109.119 Y162.883 E21.09872
G1 X97.366 Y160.643 E21.49666
G1 X96.218 Y160.404 E21.53566
G1 X95.325 Y160.177 E21.56631
G1 X94.456 Y159.874 E21.59692
G1 X93.617 Y159.496 E21.62752
G1 X92.856 Y159.073 E21.65648
G1 X92.658 Y158.952 E21.6642
G1 X92.42 Y158.802 E21.67356
G1 X92.187 Y158.651 E21.68279
G1 X81.278 Y151.486 E22.11689
G1 X80.571 Y151.007 E22.14529
G1 X79.624 Y150.282 E22.18496
G1 X78.951 Y149.653 E22.2156
G1 X78.555 Y149.225 E22.23499
G1 X77.669 Y148.215 E22.27968
G1 X77.363 Y147.857 E22.29534
G1 X75.669 Y145.985 E22.37931
G1 X73.924 Y144.165 E22.46318
G1 X72.118 Y142.386 E22.54749
G1 X70.288 Y140.679 E22.63073
G1 X68.359 Y138.984 E22.71614
G1 X66.441 Y137.389 E22.79911
G1 X64.422 Y135.805 E22.88446
G1 X63.947 Y135.449 E22.9042
G1 X63.74 Y135.289 E22.9129
G1 X63.579 Y135.162 E22.91972
G1 X62.649 Y134.335 E22.96112
G1 X62.537 Y134.223 E22.96638
G1 X61.915 Y133.545 E22.99699
G1 X61.354 Y132.815 E23.02761
G1 X60.858 Y132.039 E23.05824
G1 X60.432 Y131.223 E23.08886
G1 X60.078 Y130.373 E23.11948
G1 X59.8 Y129.495 E23.15011
G1 X59.598 Y128.597 E23.18073
G1 X59.475 Y127.684 E23.21137
G1 X59.438 Y127.086 E23.23129
G1 X59.433 Y126.938 E23.23622
G1 X59.428 Y126.71 E23.2438
G1 X59.422 Y126.171 E23.26173
G1 X59.423 Y108.023 E23.86534
G1 X59.433 Y107.321 E23.88869
G1 X59.486 Y106.402 E23.91931
G1 X59.619 Y105.491 E23.94993
G1 X59.83 Y104.595 E23.98054
G1 X60.118 Y103.72 E24.01118
G1 X60.481 Y102.874 E24.0418
G1 X60.916 Y102.063 E24.07241
G1 X61.42 Y101.292 E24.10305
G1 X61.988 Y100.568 E24.13365
G1 X62.567 Y99.946 E24.16192
G1 X62.691 Y99.823 E24.16773
G1 X63.372 Y99.204 E24.19833
G1 X63.916 Y98.78 E24.22127
G1 X64.832 Y98.113 E24.25896
G1 X66.903 Y96.558 E24.3451
G1 X68.869 Y94.994 E24.42866
G1 X70.811 Y93.357 E24.51313
G1 X72.693 Y91.677 E24.59704
G1 X74.558 Y89.916 E24.68235
G1 X76.31 Y88.164 E24.76476
G1 X78.474 Y85.862 E24.86985
G1 X78.667 Y85.65 E24.87938
G1 X79.317 Y84.997 E24.91003
G0 F6000 X79.6 Y85.28
G1 F900 X80.292 Y84.699 E24.94008
G1 X80.724 Y84.385 E24.95784
G1 X81.608 Y83.778 E24.99351
G1 X81.782 Y83.662 E25.00046
G1 X92.178 Y76.833 E25.41416
G1 X92.923 Y76.358 E25.44355
G1 X93.705 Y75.908 E25.47356
G1 X94.525 Y75.528 E25.50362
G1 X95.375 Y75.223 E25.53365
G1 X96.327 Y74.977 E25.56636
G1 X97.332 Y74.77 E25.60049
G1 X108.652 Y72.613 E25.98377
G1 X109.489 Y72.466 E26.01203
G1 X110.385 Y72.349 E26.04208
G1 X111.53 Y72.317 E26.08018
G1 X111.602 Y72.319 E26.08258
G1 X112.941 Y72.445 E26.12731
G1 X113.208 Y72.488 E26.1363
G1 X113.607 Y72.558 E26.14978
G1 X125.072 Y74.744 E26.53797
G1 X126.241 Y74.987 E26.57769
G1 X127.116 Y75.21 E26.60772
