;FLAVOR:Marlin
;TIME:14223
;Filament used: 8.97205m
;Layer height: 0.2
;MINX:66.566
;MINY:70.266
;MINZ:0.2
;MAXX:168.45
;MAXY:164.734
;MAXZ:52.4
;Generated with Cura_SteamEngine 4.7.1
M140 S70
M105
M190 S70
M104 S240
M105
M109 S240
M82 ;absolute extrusion mode
; Ender 3 Custom Start G-code
G92 E0 ; Reset Extruder
G28 ; Home all axes
G1 Z2.0 F3000 ; Move Z Axis up little to prevent scratching of Heat Bed
G1 X0.1 Y20 Z0.3 F5000.0 ; Move to start position
G1 X0.1 Y200.0 Z0.3 F1500.0 E15 ; Draw the first line
G1 X0.4 Y200.0 Z0.3 F5000.0 ; Move to side a little
G1 X0.4 Y20 Z0.3 F1500.0 E30 ; Draw the second line
G92 E0 ; Reset Extruder
G1 Z2.0 F3000 ; Move Z Axis up little to prevent scratching of Heat Bed
G1 X5 Y20 Z0.3 F5000.0 ; Move over to prevent blob squish
G92 E0
G92 E0
G1 F2700 E-5
;LAYER_COUNT:262
;LAYER:0
M107
G0 F6000 X80.331 Y84.166 Z0.2
;TYPE:SKIRT
G1 F2700 E0
G1 F900 X81.06 Y83.493 E0.033
G1 X81.791 Y82.877 E0.06479
G1 X81.944 Y82.751 E0.07139
G1 X86.63 Y78.946 E0.27215
G1 X87.146 Y78.54 E0.29399
G1 X87.907 Y77.992 E0.32518
G1 X88.707 Y77.514 E0.35618
G1 X89.458 Y77.107 E0.38459
G1 X89.639 Y77.011 E0.3914
G1 X94.882 Y74.296 E0.58778
G1 X95.548 Y73.963 E0.61255
G1 X96.404 Y73.58 E0.64374
G1 X97.274 Y73.276 E0.67439
G1 X98.06 Y73.038 E0.7017
G1 X103.468 Y71.483 E0.88886
G1 X103.637 Y71.436 E0.8947
G1 X104.336 Y71.247 E0.91878
G1 X105.251 Y71.041 E0.94997
G1 X105.743 Y70.964 E0.96654
G1 X105.944 Y70.937 E0.97328
G1 X106.287 Y70.896 E0.98477
G1 X106.686 Y70.856 E0.99811
G1 X112.209 Y70.35 E1.18257
G1 X112.885 Y70.298 E1.20512
G1 X113.823 Y70.266 E1.23634
G1 X114.508 Y70.294 E1.25914
G1 X115.592 Y70.371 E1.29529
G1 X115.818 Y70.389 E1.30283
G1 X120.714 Y70.838 E1.46635
G1 X121.554 Y70.926 E1.49444
G1 X122.482 Y71.063 E1.52564
G1 X123.035 Y71.195 E1.54455
G1 X123.037 Y71.188 E1.5448
G1 X123.264 Y71.244 E1.55257
G1 X123.593 Y71.331 E1.56389
G1 X123.861 Y71.406 E1.57315
G1 X129.528 Y73.035 E1.76927
G1 X130.31 Y73.27 E1.79642
G1 X131.196 Y73.579 E1.82763
G1 X132.068 Y73.969 E1.8594
G1 X132.704 Y74.288 E1.88307
G1 X138.253 Y77.163 E2.09093
G1 X138.815 Y77.465 E2.11215
G1 X139.621 Y77.944 E2.14334
G1 X140.398 Y78.501 E2.17513
G1 X141.216 Y79.144 E2.20974
G1 X145.8 Y82.867 E2.40615
G1 X146.493 Y83.445 E2.43617
G1 X146.94 Y83.84 E2.45601
G1 X147.222 Y84.105 E2.46888
G1 X148.813 Y85.639 E2.54239
G1 X150.677 Y87.338 E2.62627
G1 X152.587 Y88.98 E2.71005
G1 X154.553 Y90.577 E2.79429
G1 X156.54 Y92.101 E2.87758
G1 X158.581 Y93.575 E2.96132
G1 X160.635 Y94.973 E3.04395
G1 X163.228 Y96.624 E3.1462
G1 X163.997 Y97.161 E3.17739
G1 X164.718 Y97.762 E3.20861
G1 X165.098 Y98.125 E3.22609
G1 X165.218 Y98.245 E3.23173
G1 X165.852 Y98.936 E3.26293
G1 X166.426 Y99.678 E3.29413
G1 X166.933 Y100.467 E3.32532
G1 X167.372 Y101.295 E3.35649
G1 X167.739 Y102.159 E3.38771
G1 X168.031 Y103.05 E3.4189
G1 X168.245 Y103.963 E3.45009
G1 X168.382 Y104.891 E3.48129
G1 X168.434 Y105.652 E3.50666
G1 X168.439 Y105.8 E3.51158
G1 X168.444 Y106.037 E3.51947
G1 X168.45 Y106.58 E3.53753
G1 X168.449 Y128.433 E4.26436
G1 X168.439 Y129.135 E4.28771
G1 X168.386 Y130.071 E4.31889
G1 X168.253 Y130.999 E4.35008
G1 X168.041 Y131.913 E4.38128
G1 X167.753 Y132.806 E4.41249
G1 X167.389 Y133.67 E4.44367
G1 X166.953 Y134.501 E4.47489
G1 X166.448 Y135.291 E4.50607
G1 X165.878 Y136.035 E4.53724
G1 X165.218 Y136.756 E4.56975
G1 X165.104 Y136.87 E4.57512
G1 X164.413 Y137.504 E4.60631
G1 X163.296 Y138.331 E4.65253
G1 X162.654 Y138.745 E4.67794
G1 X161.41 Y139.523 E4.72674
G1 X159.329 Y140.908 E4.80988
G1 X157.283 Y142.357 E4.89327
G1 X155.249 Y143.882 E4.97783
G1 X153.295 Y145.438 E5.0609
G1 X151.358 Y147.071 E5.14517
G1 X149.498 Y148.731 E5.22809
G1 X147.636 Y150.49 E5.31328
G1 X147.348 Y150.772 E5.32669
G1 X147.08 Y151.026 E5.33897
G1 X146.611 Y151.445 E5.35989
G1 X145.819 Y152.114 E5.39437
G1 X145.656 Y152.249 E5.40141
G1 X140.97 Y156.054 E5.60218
G1 X140.454 Y156.46 E5.62401
G1 X139.693 Y157.008 E5.6552
G1 X138.893 Y157.486 E5.6862
G1 X138.142 Y157.893 E5.71461
G1 X137.961 Y157.989 E5.72143
G1 X132.73 Y160.698 E5.91736
G1 X132.064 Y161.032 E5.94214
G1 X131.209 Y161.416 E5.97331
G1 X130.315 Y161.729 E6.00481
G1 X129.541 Y161.962 E6.0317
G1 X124.133 Y163.517 E6.21886
G1 X123.26 Y163.754 E6.24895
G1 X122.345 Y163.959 E6.28013
G1 X121.857 Y164.036 E6.29656
G1 X121.656 Y164.063 E6.30331
G1 X121.313 Y164.104 E6.3148
G1 X120.914 Y164.144 E6.32814
G1 X115.391 Y164.65 E6.5126
G1 X114.715 Y164.702 E6.53515
G1 X113.777 Y164.734 E6.56637
G1 X113.092 Y164.706 E6.58917
G1 X112.008 Y164.629 E6.62531
G1 X111.782 Y164.611 E6.63286
G1 X106.886 Y164.162 E6.79638
G1 X106.723 Y164.146 E6.80183
G1 X106.03 Y164.072 E6.82501
G1 X105.103 Y163.933 E6.85619
G1 X104.475 Y163.792 E6.87759
G1 X104.248 Y163.734 E6.88539
G1 X104.007 Y163.669 E6.89369
G1 X103.739 Y163.594 E6.90294
G1 X98.072 Y161.965 E7.09906
G1 X97.29 Y161.73 E7.12622
G1 X96.404 Y161.421 E7.15743
G1 X95.532 Y161.031 E7.1892
G1 X94.896 Y160.712 E7.21287
G1 X89.347 Y157.837 E7.42073
G1 X88.785 Y157.535 E7.44195
G1 X87.979 Y157.056 E7.47313
G1 X87.202 Y156.499 E7.50493
G1 X86.384 Y155.856 E7.53953
G1 X81.8 Y152.133 E7.73595
G1 X81.152 Y151.593 E7.764
G1 X80.459 Y150.962 E7.79518
G1 X79.788 Y150.234 E7.82811
G1 X79.175 Y149.506 E7.85976
G1 X79.051 Y149.356 E7.86623
G1 X75.246 Y144.67 E8.067
G1 X74.84 Y144.154 E8.08884
G1 X74.292 Y143.393 E8.12003
G1 X73.814 Y142.593 E8.15103
G1 X73.407 Y141.842 E8.17944
G1 X73.311 Y141.661 E8.18625
G1 X70.602 Y136.43 E8.38218
G1 X70.268 Y135.764 E8.40696
G1 X69.884 Y134.909 E8.43814
G1 X69.569 Y134.007 E8.46991
G1 X69.374 Y133.36 E8.49239
G1 X67.735 Y127.66 E8.68965
G1 X67.546 Y126.96 E8.71377
G1 X67.341 Y126.045 E8.74496
G1 X67.264 Y125.557 E8.76139
G1 X67.237 Y125.356 E8.76813
G1 X67.196 Y125.013 E8.77962
G1 X67.156 Y124.614 E8.79296
G1 X66.664 Y119.252 E8.97205
G1 X66.599 Y118.419 E8.99984
G1 X66.566 Y117.482 E9.03102
G1 X66.594 Y116.795 E9.05389
G1 X66.671 Y115.709 E9.0901
G1 X66.689 Y115.482 E9.09768
G1 X67.138 Y110.586 E9.2612
G1 X67.154 Y110.423 E9.26665
G1 X67.228 Y109.73 E9.28983
G1 X67.367 Y108.803 E9.32101
G1 X67.508 Y108.175 E9.34241
G1 X67.566 Y107.948 E9.35021
G1 X67.631 Y107.707 E9.35851
G1 X67.706 Y107.439 E9.36777
G1 X69.335 Y101.772 E9.56388
G1 X69.57 Y100.991 E9.59101
G1 X69.879 Y100.105 E9.62222
G1 X70.262 Y99.249 E9.65341
G1 X70.582 Y98.609 E9.67721
G1 X73.386 Y93.194 E9.88003
G1 X73.761 Y92.493 E9.90647
G1 X74.239 Y91.687 E9.93764
G1 X74.796 Y90.908 E9.96949
G1 X75.326 Y90.232 E9.99806
G1 X75.444 Y90.084 E10.00435
G1 X79.167 Y85.5 E10.20077
G1 X79.7 Y84.86 E10.22847
G1 X80.331 Y84.166 E10.25967
G0 F6000 X80.627 Y84.435
G1 F900 X81.317 Y83.799 E10.29088
G1 X82.048 Y83.183 E10.32267
G1 X82.196 Y83.061 E10.32905
G1 X86.749 Y79.363 E10.52414
G1 X87.393 Y78.855 E10.55142
G1 X88.141 Y78.317 E10.58207
G1 X88.897 Y77.866 E10.61135
G1 X89.648 Y77.459 E10.63976
G1 X89.823 Y77.366 E10.64635
G1 X94.925 Y74.723 E10.83746
G1 X95.727 Y74.321 E10.8673
G1 X96.567 Y73.945 E10.89791
G1 X97.39 Y73.658 E10.9269
G1 X98.023 Y73.466 E10.9489
G1 X103.741 Y71.822 E11.14678
G1 X104.44 Y71.633 E11.17087
G1 X105.339 Y71.432 E11.20151
G1 X105.796 Y71.36 E11.21689
G1 X105.997 Y71.333 E11.22364
G1 X106.327 Y71.294 E11.23469
G1 X106.722 Y71.254 E11.2479
G1 X112.084 Y70.762 E11.42699
G1 X112.916 Y70.697 E11.45474
G1 X113.836 Y70.667 E11.48536
G1 X114.48 Y70.693 E11.5068
G1 X115.564 Y70.77 E11.54294
G1 X115.781 Y70.787 E11.55018
G1 X120.819 Y71.25 E11.71845
G1 X121.512 Y71.323 E11.74163
G1 X122.423 Y71.459 E11.77226
G1 X122.94 Y71.583 E11.78995
G1 X122.941 Y71.577 E11.79015
G1 X123.168 Y71.633 E11.79793
G1 X123.485 Y71.716 E11.80882
G1 X123.75 Y71.791 E11.81799
G1 X129.548 Y73.458 E12.01864
G1 X130.195 Y73.653 E12.04112
G1 X131.064 Y73.957 E12.07174
G1 X131.888 Y74.327 E12.10178
G1 X132.648 Y74.709 E12.13007
G1 X137.922 Y77.441 E12.32762
G1 X138.626 Y77.818 E12.35418
G1 X139.417 Y78.288 E12.38479
G1 X140.151 Y78.815 E12.41484
G1 X140.824 Y79.343 E12.44329
G1 X140.964 Y79.455 E12.44925
G1 X145.664 Y83.273 E12.65065
G1 X146.237 Y83.752 E12.67549
G1 X146.667 Y84.132 E12.69458
G1 X146.815 Y84.27 E12.70131
G1 X148.531 Y85.924 E12.78058
G1 X150.43 Y87.654 E12.86602
G1 X152.32 Y89.279 E12.94892
G1 X154.281 Y90.872 E13.03296
G1 X156.308 Y92.426 E13.11791
G1 X158.368 Y93.914 E13.20243
G1 X160.424 Y95.313 E13.28514
G1 X163.013 Y96.962 E13.38723
G1 X163.768 Y97.49 E13.41788
G1 X164.474 Y98.081 E13.4485
G1 X164.815 Y98.408 E13.46421
G1 X164.935 Y98.528 E13.46986
G1 X165.557 Y99.206 E13.50046
G1 X166.118 Y99.936 E13.53108
G1 X166.614 Y100.712 E13.56171
G1 X167.04 Y101.528 E13.59233
G1 X167.394 Y102.378 E13.62295
G1 X167.672 Y103.256 E13.65359
G1 X167.874 Y104.154 E13.6842
G1 X167.997 Y105.067 E13.71484
G1 X168.034 Y105.665 E13.73477
G1 X168.039 Y105.813 E13.73969
G1 X168.044 Y106.041 E13.74728
G1 X168.05 Y106.58 E13.76521
G1 X168.049 Y128.427 E14.49184
G1 X168.039 Y129.129 E14.51519
G1 X167.986 Y130.048 E14.54581
G1 X167.853 Y130.959 E14.57643
G1 X167.642 Y131.855 E14.60705
G1 X167.354 Y132.73 E14.63769
G1 X166.991 Y133.576 E14.6683
G1 X166.556 Y134.387 E14.69891
G1 X166.052 Y135.158 E14.72955
G1 X165.484 Y135.882 E14.76016
G1 X164.935 Y136.473 E14.78699
G1 X164.821 Y136.587 E14.79235
G1 X164.143 Y137.209 E14.82295
G1 X163.079 Y137.995 E14.86695
G1 X162.442 Y138.406 E14.89216
G1 X161.198 Y139.184 E14.94096
G1 X159.106 Y140.577 E15.02456
G1 X157.034 Y142.044 E15.109
G1 X155.027 Y143.549 E15.19243
G1 X153.012 Y145.153 E15.27809
G1 X151.117 Y146.75 E15.36052
G1 X149.221 Y148.443 E15.44506
G1 X147.342 Y150.218 E15.53103
G1 X147.073 Y150.482 E15.54357
G1 X146.805 Y150.736 E15.55585
G1 X146.353 Y151.14 E15.57601
G1 X145.561 Y151.809 E15.61049
G1 X145.404 Y151.939 E15.61727
G1 X140.851 Y155.637 E15.81236
G1 X140.207 Y156.145 E15.83965
G1 X139.459 Y156.683 E15.87029
G1 X138.703 Y157.134 E15.89957
G1 X137.952 Y157.541 E15.92798
G1 X137.777 Y157.634 E15.93457
G1 X132.675 Y160.277 E16.12568
G1 X131.885 Y160.674 E16.15509
G1 X131.045 Y161.051 E16.18571
G1 X130.2 Y161.346 E16.21548
G1 X129.568 Y161.537 E16.23744
G1 X123.856 Y163.179 E16.43512
G1 X123.156 Y163.368 E16.45923
G1 X121.804 Y163.64 E16.5051
G1 X121.603 Y163.667 E16.51185
G1 X121.273 Y163.706 E16.5229
G1 X120.878 Y163.746 E16.5361
G1 X115.516 Y164.238 E16.71519
G1 X114.684 Y164.303 E16.74295
G1 X113.764 Y164.333 E16.77357
G1 X113.12 Y164.307 E16.795
G1 X112.036 Y164.23 E16.83115
G1 X111.819 Y164.213 E16.83839
G1 X106.923 Y163.764 E17.00191
G1 X106.073 Y163.674 E17.03034
G1 X105.162 Y163.537 E17.06098
G1 X104.574 Y163.404 E17.08103
G1 X104.347 Y163.346 E17.08883
G1 X104.115 Y163.284 E17.09681
G1 X103.85 Y163.209 E17.10597
G1 X98.052 Y161.542 E17.30663
G1 X97.405 Y161.347 E17.3291
G1 X96.536 Y161.043 E17.35972
G1 X95.712 Y160.673 E17.38977
G1 X94.952 Y160.291 E17.41806
G1 X89.678 Y157.559 E17.61561
G1 X88.974 Y157.182 E17.64217
G1 X88.183 Y156.712 E17.67277
G1 X87.449 Y156.185 E17.70283
G1 X86.776 Y155.657 E17.73128
G1 X86.636 Y155.545 E17.73724
G1 X82.052 Y151.822 E17.93365
G1 X81.409 Y151.286 E17.9615
G1 X80.728 Y150.666 E17.99213
G1 X80.094 Y149.976 E18.02329
G1 X79.361 Y149.104 E18.06118
G1 X75.663 Y144.551 E18.25627
G1 X75.155 Y143.907 E18.28355
G1 X74.617 Y143.159 E18.3142
G1 X74.166 Y142.403 E18.34348
G1 X73.759 Y141.652 E18.37189
G1 X73.666 Y141.477 E18.37848
G1 X71.023 Y136.375 E18.56959
G1 X70.626 Y135.585 E18.599
G1 X70.249 Y134.745 E18.62962
G1 X69.952 Y133.892 E18.65966
G1 X69.719 Y133.116 E18.68661
G1 X68.121 Y127.556 E18.87902
G1 X67.932 Y126.856 E18.90314
G1 X67.66 Y125.504 E18.94901
G1 X67.633 Y125.303 E18.95575
G1 X67.594 Y124.973 E18.96681
G1 X67.554 Y124.578 E18.98001
G1 X67.062 Y119.216 E19.1591
G1 X66.997 Y118.388 E19.18672
G1 X66.967 Y117.468 E19.21734
G1 X66.993 Y116.823 E19.23881
G1 X67.07 Y115.737 E19.27502
G1 X67.087 Y115.519 E19.28229
G1 X67.536 Y110.623 E19.44582
G1 X67.626 Y109.773 E19.47425
G1 X67.763 Y108.862 E19.50489
G1 X67.896 Y108.274 E19.52494
G1 X67.954 Y108.047 E19.53273
G1 X68.016 Y107.815 E19.54072
G1 X68.091 Y107.55 E19.54988
G1 X69.759 Y101.749 E19.75064
G1 X69.953 Y101.106 E19.77298
G1 X70.257 Y100.237 E19.8036
G1 X70.62 Y99.428 E19.83309
G1 X71.009 Y98.652 E19.86196
G1 X73.813 Y93.241 E20.06466
G1 X74.113 Y92.682 E20.08576
G1 X74.583 Y91.891 E20.11637
G1 X75.111 Y91.155 E20.14649
G1 X75.641 Y90.479 E20.17506
G1 X75.755 Y90.336 E20.18115
G1 X79.565 Y85.646 E20.38212
G1 X80.007 Y85.116 E20.40507
G1 X80.627 Y84.435 E20.43571
G0 F6000 X80.923 Y84.705
G1 F900 X81.575 Y84.105 E20.46518
G1 X82.306 Y83.489 E20.49697
G1 X82.448 Y83.372 E20.50309
G1 X87.001 Y79.674 E20.69818
G1 X87.641 Y79.169 E20.7253
G1 X88.375 Y78.642 E20.75535
G1 X89.088 Y78.217 E20.78296
G1 X89.839 Y77.81 E20.81137
G1 X90.007 Y77.721 E20.81769
G1 X95.109 Y75.078 E21.0088
G1 X95.905 Y74.679 E21.03842
G1 X96.73 Y74.311 E21.06846
G1 X97.506 Y74.041 E21.09579
G1 X98.281 Y73.807 E21.12272
G1 X103.689 Y72.252 E21.30987
G1 X104.545 Y72.02 E21.33937
G1 X105.849 Y71.757 E21.38362
G1 X106.05 Y71.73 E21.39036
G1 X106.368 Y71.692 E21.40101
G1 X106.759 Y71.653 E21.41408
G1 X112.271 Y71.148 E21.59818
G1 X112.947 Y71.096 E21.62073
G1 X113.849 Y71.067 E21.65075
G1 X114.452 Y71.092 E21.67082
G1 X115.536 Y71.169 E21.70697
G1 X115.745 Y71.186 E21.71394
G1 X120.778 Y71.648 E21.88204
G1 X121.471 Y71.721 E21.90522
G1 X122.364 Y71.855 E21.93525
G1 X122.843 Y71.971 E21.95164
G1 X122.845 Y71.965 E21.95185
G1 X123.072 Y72.021 E21.95963
G1 X123.377 Y72.101 E21.97012
G1 X123.64 Y72.175 E21.97921
G1 X129.307 Y73.804 E22.17532
G1 X130.079 Y74.036 E22.20213
G1 X130.932 Y74.335 E22.2322
G1 X131.709 Y74.685 E22.26054
G1 X132.464 Y75.064 E22.28864
G1 X137.738 Y77.796 E22.48619
G1 X138.436 Y78.17 E22.51253
G1 X139.212 Y78.632 E22.54257
G1 X139.904 Y79.13 E22.57092
G1 X140.577 Y79.658 E22.59938
G1 X140.711 Y79.765 E22.60508
G1 X145.407 Y83.58 E22.80631
G1 X145.98 Y84.059 E22.83115
G1 X146.394 Y84.425 E22.84953
G1 X146.666 Y84.681 E22.86196
G1 X148.267 Y86.224 E22.93591
G1 X150.146 Y87.937 E23.02048
G1 X152.052 Y89.576 E23.10409
G1 X154.053 Y91.202 E23.18984
G1 X156.054 Y92.735 E23.27368
G1 X158.131 Y94.236 E23.35892
G1 X160.199 Y95.643 E23.44211
G1 X162.799 Y97.299 E23.54464
G1 X163.538 Y97.818 E23.57467
G1 X164.532 Y98.691 E23.61867
G1 X164.652 Y98.811 E23.62432
G1 X165.262 Y99.477 E23.65436
G1 X165.811 Y100.194 E23.68439
G1 X166.293 Y100.958 E23.71444
G1 X166.707 Y101.761 E23.74448
G1 X167.047 Y102.597 E23.7745
G1 X167.313 Y103.46 E23.80454
G1 X167.501 Y104.343 E23.83456
G1 X167.634 Y105.679 E23.87922
G1 X167.644 Y106.046 E23.89143
G1 X167.65 Y106.58 E23.90919
G1 X167.649 Y128.421 E24.63563
G1 X167.639 Y129.123 E24.65898
G1 X167.586 Y130.025 E24.68903
G1 X167.454 Y130.918 E24.71905
G1 X167.243 Y131.796 E24.74909
G1 X166.955 Y132.652 E24.77913
G1 X166.593 Y133.48 E24.80918
G1 X166.159 Y134.272 E24.83922
G1 X165.656 Y135.022 E24.86926
G1 X165.09 Y135.725 E24.89928
G1 X164.652 Y136.19 E24.92052
G1 X164.538 Y136.304 E24.92588
G1 X163.872 Y136.914 E24.95592
G1 X162.862 Y137.659 E24.99767
G1 X162.356 Y137.986 E25.0177
G1 X161.011 Y138.828 E25.07048
G1 X158.859 Y140.261 E25.15647
G1 X156.826 Y141.7 E25.23932
G1 X154.766 Y143.244 E25.32494
G1 X152.768 Y144.836 E25.40991
G1 X150.858 Y146.445 E25.49298
G1 X148.944 Y148.154 E25.57832
G1 X147.09 Y149.906 E25.66316
G1 X146.798 Y150.191 E25.67673
G1 X146.53 Y150.445 E25.68901
G1 X146.095 Y150.834 E25.70842
G1 X145.303 Y151.503 E25.7429
G1 X145.152 Y151.628 E25.74942
G1 X140.599 Y155.326 E25.94451
G1 X139.959 Y155.831 E25.97163
G1 X139.225 Y156.358 E26.00168
G1 X138.512 Y156.783 E26.02929
G1 X137.761 Y157.19 E26.0577
G1 X137.593 Y157.279 E26.06402
G1 X132.372 Y159.983 E26.25958
G1 X131.706 Y160.317 E26.28436
G1 X130.881 Y160.685 E26.31441
G1 X130.084 Y160.963 E26.34248
G1 X129.32 Y161.193 E26.36902
G1 X123.912 Y162.748 E26.55618
G1 X123.052 Y162.981 E26.58581
G1 X121.751 Y163.243 E26.62996
G1 X121.55 Y163.27 E26.6367
G1 X121.232 Y163.308 E26.64735
G1 X120.841 Y163.347 E26.66042
G1 X115.329 Y163.852 E26.84452
G1 X114.653 Y163.904 E26.86707
G1 X113.751 Y163.933 E26.89709
G1 X113.148 Y163.908 E26.91716
G1 X112.064 Y163.831 E26.9533
