;FLAVOR:Marlin
;TIME:11516
;Filament used: 7.34299m
;Layer height: 0.2
;MINX:15.969
;MINY:43.685
;MINZ:0.2
;MAXX:200.444
;MAXY:189.615
;MAXZ:9
;Generated with Cura_SteamEngine 4.7.1
M140 S70
M105
M190 S70
M104 S240
M105
M109 S240
M82 ;absolute extrusion mode
; Ender 3 Custom Start G-code
G92 E0 ; Reset Extruder
G28 ; Home all axes
G1 Z2.0 F3000 ; Move Z Axis up little to prevent scratching of Heat Bed
G1 X0.1 Y20 Z0.3 F5000.0 ; Move to start position
G1 X0.1 Y200.0 Z0.3 F1500.0 E15 ; Draw the first line
G1 X0.4 Y200.0 Z0.3 F5000.0 ; Move to side a little
G1 X0.4 Y20 Z0.3 F1500.0 E30 ; Draw the second line
G92 E0 ; Reset Extruder
G1 Z2.0 F3000 ; Move Z Axis up little to prevent scratching of Heat Bed
G1 X5 Y20 Z0.3 F5000.0 ; Move over to prevent blob squish
G92 E0
G92 E0
G1 F2700 E-5
;LAYER_COUNT:45
;LAYER:0
M107
G0 F6000 X37.402 Y51.465 Z0.2
;TYPE:SKIRT
G1 F2700 E0
G1 F900 X38.232 Y50.968 E0.03218
G1 X39.177 Y50.458 E0.06789
G1 X44.35 Y47.779 E0.26165
G1 X45.126 Y47.391 E0.29051
G1 X45.983 Y47.009 E0.32171
G1 X46.841 Y46.709 E0.35195
G1 X47.461 Y46.521 E0.37349
G1 X53.086 Y44.903 E0.56817
G1 X53.938 Y44.671 E0.59754
G1 X54.853 Y44.464 E0.62874
G1 X55.454 Y44.372 E0.64896
G1 X55.654 Y44.347 E0.65567
G1 X55.892 Y44.32 E0.66363
G1 X56.326 Y44.276 E0.67814
G1 X61.863 Y43.77 E0.86307
G1 X62.512 Y43.719 E0.88472
G1 X63.45 Y43.685 E0.91594
G1 X64.159 Y43.713 E0.93954
G1 X65.291 Y43.794 E0.97729
G1 X65.509 Y43.812 E0.98456
G1 X70.391 Y44.259 E1.14762
G1 X70.554 Y44.275 E1.15307
G1 X71.267 Y44.351 E1.17691
G1 X72.194 Y44.49 E1.20809
G1 X72.833 Y44.634 E1.22988
G1 X73.215 Y44.733 E1.243
G1 X73.623 Y44.846 E1.25708
G1 X79.27 Y46.47 E1.45252
G1 X80.068 Y46.711 E1.48024
G1 X80.953 Y47.02 E1.51142
G1 X81.817 Y47.407 E1.54291
G1 X82.455 Y47.727 E1.56665
G1 X88.044 Y50.623 E1.77601
G1 X88.597 Y50.92 E1.79689
G1 X89.403 Y51.399 E1.82807
G1 X90.18 Y51.955 E1.85985
G1 X90.903 Y52.522 E1.89041
G1 X91.051 Y52.64 E1.89671
G1 X95.597 Y56.333 E2.09151
G1 X96.286 Y56.908 E2.12136
G1 X96.979 Y57.54 E2.15255
G1 X97.638 Y58.254 E2.18487
G1 X98.284 Y59.02 E2.2182
G1 X98.414 Y59.178 E2.225
G1 X101.438 Y62.901 E2.38453
G1 X103.093 Y64.882 E2.47039
G1 X104.772 Y66.779 E2.55465
G1 X106.497 Y68.62 E2.63856
G1 X108.245 Y70.385 E2.72118
G1 X110.096 Y72.148 E2.8062
G1 X111.942 Y73.811 E2.88884
G1 X113.879 Y75.458 E2.9734
G1 X115.836 Y77.03 E3.05689
G1 X117.836 Y78.545 E3.14034
G1 X119.906 Y80.021 E3.2249
G1 X121.959 Y81.402 E3.3072
G1 X124.135 Y82.776 E3.39279
G1 X126.265 Y84.04 E3.47517
G1 X128.459 Y85.258 E3.55863
G1 X130.731 Y86.436 E3.64375
G1 X132.964 Y87.515 E3.72624
G1 X135.275 Y88.554 E3.81052
G1 X137.552 Y89.501 E3.89254
G1 X139.944 Y90.416 E3.97772
G1 X142.327 Y91.252 E4.06171
G1 X144.704 Y92.01 E4.14469
G1 X147.135 Y92.711 E4.22884
G1 X149.593 Y93.344 E4.31327
G1 X151.994 Y93.892 E4.39518
G1 X154.476 Y94.384 E4.47933
G1 X157.008 Y94.812 E4.56474
G1 X159.493 Y95.16 E4.6482
G1 X160.622 Y95.291 E4.686
G1 X161.042 Y95.345 E4.70009
G1 X162.299 Y95.585 E4.74265
G1 X162.513 Y95.639 E4.74999
G1 X162.786 Y95.712 E4.75939
G1 X163.081 Y95.795 E4.76958
G1 X168.914 Y97.474 E4.97147
G1 X169.578 Y97.675 E4.99454
G1 X170.463 Y97.985 E5.02573
G1 X171.316 Y98.367 E5.05682
G1 X172.119 Y98.77 E5.0867
G1 X177.506 Y101.561 E5.28849
G1 X178.101 Y101.88 E5.31095
G1 X178.908 Y102.358 E5.34214
G1 X179.686 Y102.915 E5.37397
G1 X180.406 Y103.479 E5.40439
G1 X180.56 Y103.602 E5.41094
G1 X185.106 Y107.296 E5.60577
G1 X185.794 Y107.87 E5.63557
G1 X186.487 Y108.502 E5.66676
G1 X187.146 Y109.216 E5.69908
G1 X187.76 Y109.944 E5.73076
G1 X187.89 Y110.101 E5.73753
G1 X191.625 Y114.7 E5.93459
G1 X192.122 Y115.329 E5.96125
G1 X192.671 Y116.089 E5.99243
G1 X193.161 Y116.908 E6.02418
G1 X193.563 Y117.651 E6.05228
G1 X193.656 Y117.826 E6.05887
G1 X196.326 Y122.981 E6.25196
G1 X196.723 Y123.771 E6.28136
G1 X197.107 Y124.626 E6.31254
G1 X197.42 Y125.522 E6.3441
G1 X197.671 Y126.354 E6.37301
G1 X199.224 Y131.755 E6.55992
G1 X199.454 Y132.599 E6.58902
G1 X199.662 Y133.513 E6.6202
G1 X199.76 Y134.155 E6.6418
G1 X199.787 Y134.376 E6.6492
G1 X199.81 Y134.583 E6.65613
G1 X199.856 Y135.037 E6.67131
G1 X200.359 Y140.54 E6.8551
G1 X200.41 Y141.188 E6.87672
G1 X200.444 Y142.125 E6.9079
G1 X200.416 Y142.833 E6.93147
G1 X200.336 Y143.956 E6.96892
G1 X200.318 Y144.179 E6.97636
G1 X199.859 Y149.174 E7.14319
G1 X199.78 Y149.926 E7.16834
G1 X199.642 Y150.854 E7.19955
G1 X199.505 Y151.47 E7.22054
G1 X199.454 Y151.672 E7.22746
G1 X199.388 Y151.921 E7.23603
G1 X199.283 Y152.3 E7.24911
G1 X197.659 Y157.947 E7.44455
G1 X197.612 Y158.106 E7.45006
G1 X197.412 Y158.764 E7.47293
G1 X197.101 Y159.649 E7.50413
G1 X196.726 Y160.484 E7.53458
G1 X196.346 Y161.242 E7.56278
G1 X193.573 Y166.596 E7.76332
G1 X193.217 Y167.262 E7.78844
G1 X192.739 Y168.069 E7.81963
G1 X192.177 Y168.855 E7.85177
G1 X191.614 Y169.573 E7.88212
G1 X187.795 Y174.275 E8.08359
G1 X187.7 Y174.391 E8.08858
G1 X187.228 Y174.956 E8.11307
G1 X186.596 Y175.65 E8.14429
G1 X185.88 Y176.311 E8.1767
G1 X185.144 Y176.932 E8.20873
G1 X184.985 Y177.064 E8.2156
G1 X180.331 Y180.843 E8.415
G1 X179.772 Y181.285 E8.4387
G1 X179.012 Y181.834 E8.46988
G1 X178.182 Y182.331 E8.50206
G1 X177.237 Y182.841 E8.53777
G1 X172.064 Y185.52 E8.73153
G1 X171.31 Y185.898 E8.75958
G1 X170.454 Y186.281 E8.79078
G1 X169.582 Y186.586 E8.8215
G1 X168.734 Y186.842 E8.85096
G1 X163.183 Y188.437 E9.04306
G1 X162.488 Y188.626 E9.06702
G1 X161.573 Y188.833 E9.09822
G1 X160.965 Y188.926 E9.11868
G1 X160.701 Y188.959 E9.12752
G1 X160.432 Y188.989 E9.13653
G1 X160.164 Y189.016 E9.14549
G1 X154.69 Y189.519 E9.32832
G1 X153.884 Y189.582 E9.35521
G1 X152.946 Y189.615 E9.38643
G1 X152.258 Y189.587 E9.40933
G1 X151.158 Y189.509 E9.44601
G1 X150.93 Y189.491 E9.45361
G1 X145.978 Y189.036 E9.61901
G1 X145.136 Y188.946 E9.64717
G1 X144.209 Y188.806 E9.67836
G1 X143.61 Y188.672 E9.69877
G1 X143.354 Y188.607 E9.70756
G1 X142.852 Y188.47 E9.72486
G1 X136.995 Y186.785 E9.92757
G1 X136.338 Y186.586 E9.9504
G1 X135.453 Y186.276 E9.98159
G1 X134.601 Y185.894 E10.01265
G1 X133.982 Y185.584 E10.03567
G1 X128.495 Y182.743 E10.24118
G1 X127.82 Y182.382 E10.26664
G1 X127.013 Y181.903 E10.29785
G1 X126.231 Y181.343 E10.32985
G1 X125.516 Y180.782 E10.36007
G1 X125.37 Y180.665 E10.3663
G1 X120.695 Y176.866 E10.56665
G1 X120.127 Y176.391 E10.59128
G1 X119.434 Y175.759 E10.62247
G1 X118.773 Y175.042 E10.65491
G1 X118.172 Y174.329 E10.68593
G1 X118.045 Y174.176 E10.69254
G1 X114.969 Y170.39 E10.85478
G1 X113.296 Y168.389 E10.94153
G1 X111.636 Y166.515 E11.0248
G1 X109.908 Y164.67 E11.10888
G1 X108.157 Y162.904 E11.19159
G1 X106.312 Y161.146 E11.27635
G1 X104.44 Y159.46 E11.36015
G1 X102.539 Y157.844 E11.44313
G1 X100.576 Y156.269 E11.52684
G1 X98.536 Y154.724 E11.61195
G1 X96.536 Y153.296 E11.69369
G1 X94.428 Y151.881 E11.77813
G1 X92.273 Y150.52 E11.86291
G1 X90.131 Y149.25 E11.94573
G1 X87.941 Y148.034 E12.02905
G1 X85.673 Y146.858 E12.11402
G1 X83.414 Y145.767 E12.19746
G1 X81.15 Y144.751 E12.27999
G1 X78.847 Y143.793 E12.36295
G1 X76.455 Y142.878 E12.44813
G1 X74.075 Y142.044 E12.53201
G1 X71.686 Y141.282 E12.61541
G1 X69.273 Y140.587 E12.69893
G1 X66.815 Y139.954 E12.78335
G1 X64.397 Y139.402 E12.86585
G1 X61.923 Y138.912 E12.94973
G1 X59.407 Y138.487 E13.0346
G1 X56.889 Y138.135 E13.11916
G1 X55.586 Y137.983 E13.16279
G1 X55.366 Y137.954 E13.17017
G1 X54.078 Y137.705 E13.21381
G1 X53.863 Y137.65 E13.22119
G1 X53.342 Y137.508 E13.23915
G1 X47.506 Y135.829 E13.44113
G1 X46.869 Y135.638 E13.46325
G1 X45.983 Y135.33 E13.49444
G1 X45.096 Y134.933 E13.52677
G1 X44.357 Y134.561 E13.55428
G1 X38.846 Y131.706 E13.76072
G1 X38.313 Y131.42 E13.78084
G1 X37.506 Y130.941 E13.81205
G1 X36.724 Y130.381 E13.84404
G1 X36.009 Y129.82 E13.87427
G1 X35.863 Y129.703 E13.88049
G1 X31.188 Y125.904 E14.08085
G1 X30.62 Y125.429 E14.10547
G1 X29.927 Y124.797 E14.13667
G1 X29.267 Y124.081 E14.16906
G1 X28.649 Y123.348 E14.20095
G1 X28.52 Y123.193 E14.20765
G1 X24.741 Y118.539 E14.40705
G1 X24.299 Y117.98 E14.43075
G1 X23.75 Y117.22 E14.46193
G1 X23.253 Y116.39 E14.49411
G1 X22.836 Y115.619 E14.52326
G1 X22.744 Y115.446 E14.52978
G1 X19.987 Y110.122 E14.72919
G1 X19.681 Y109.509 E14.75198
G1 X19.298 Y108.653 E14.78317
G1 X18.992 Y107.773 E14.81416
G1 X18.752 Y106.974 E14.84191
G1 X17.197 Y101.568 E15.029
G1 X17.151 Y101.404 E15.03467
G1 X16.954 Y100.677 E15.05972
G1 X16.747 Y99.762 E15.09092
G1 X16.655 Y99.159 E15.11121
G1 X16.626 Y98.926 E15.11902
G1 X16.566 Y98.358 E15.13802
G1 X16.052 Y92.745 E15.32549
G1 X16.002 Y92.104 E15.34687
G1 X15.969 Y91.167 E15.37805
G1 X15.996 Y90.476 E15.40105
G1 X16.075 Y89.355 E15.43843
G1 X16.094 Y89.123 E15.44617
G1 X16.543 Y84.229 E15.60963
G1 X16.635 Y83.355 E15.63886
G1 X16.774 Y82.428 E15.67004
G1 X16.907 Y81.83 E15.69041
G1 X16.961 Y81.616 E15.69776
G1 X17.034 Y81.343 E15.70715
G1 X17.117 Y81.048 E15.71735
G1 X18.795 Y75.216 E15.91919
G1 X18.995 Y74.555 E15.94216
G1 X19.305 Y73.67 E15.97335
G1 X19.688 Y72.816 E16.00448
G1 X20.02 Y72.153 E16.02914
G1 X22.832 Y66.723 E16.23252
G1 X23.202 Y66.031 E16.25862
G1 X23.68 Y65.224 E16.28982
G1 X24.239 Y64.442 E16.32179
G1 X24.757 Y63.781 E16.34972
G1 X24.877 Y63.631 E16.35611
G1 X28.752 Y58.862 E16.56049
G1 X29.184 Y58.345 E16.5829
G1 X29.815 Y57.651 E16.61409
G1 X30.53 Y56.992 E16.64643
G1 X31.274 Y56.364 E16.67882
G1 X31.434 Y56.232 E16.68572
G1 X36.083 Y52.456 E16.88492
G1 X36.642 Y52.014 E16.90862
G1 X37.402 Y51.465 E16.93981
G0 F6000 X37.637 Y51.789
G1 F900 X38.422 Y51.319 E16.97024
G1 X39.193 Y50.902 E16.99939
G1 X39.361 Y50.813 E17.00571
G1 X44.534 Y48.134 E17.19947
G1 X45.305 Y47.749 E17.22813
G1 X46.146 Y47.374 E17.25876
G1 X46.957 Y47.092 E17.28732
G1 X47.577 Y46.904 E17.30887
G1 X53.196 Y45.288 E17.50333
G1 X54.043 Y45.057 E17.53253
G1 X54.941 Y44.855 E17.56315
G1 X55.503 Y44.769 E17.58206
G1 X55.703 Y44.744 E17.58876
G1 X55.933 Y44.718 E17.59646
G1 X56.363 Y44.674 E17.61083
G1 X61.759 Y44.18 E17.79106
G1 X62.544 Y44.118 E17.81725
G1 X63.464 Y44.085 E17.84787
G1 X64.131 Y44.112 E17.87007
G1 X65.263 Y44.193 E17.90782
G1 X65.473 Y44.21 E17.91482
G1 X70.355 Y44.657 E18.07788
G1 X71.225 Y44.749 E18.10698
G1 X72.135 Y44.886 E18.13758
G1 X72.734 Y45.021 E18.15801
G1 X73.109 Y45.119 E18.1709
G1 X73.513 Y45.231 E18.18484
G1 X79.297 Y46.895 E18.38502
G1 X79.952 Y47.093 E18.40778
G1 X80.821 Y47.398 E18.43841
G1 X81.637 Y47.765 E18.46817
G1 X82.399 Y48.148 E18.49654
G1 X87.715 Y50.902 E18.69567
G1 X88.407 Y51.273 E18.72178
G1 X89.199 Y51.743 E18.75241
G1 X89.933 Y52.27 E18.78247
G1 X90.656 Y52.837 E18.81303
G1 X90.799 Y52.951 E18.81911
G1 X95.345 Y56.644 E19.01391
G1 X96.029 Y57.215 E19.04355
G1 X96.709 Y57.835 E19.07415
G1 X97.332 Y58.512 E19.10475
G1 X97.978 Y59.278 E19.13808
G1 X98.103 Y59.43 E19.14463
G1 X101.083 Y63.1 E19.30187
G1 X102.805 Y65.161 E19.39119
G1 X104.464 Y67.034 E19.47441
G1 X106.221 Y68.91 E19.5599
G1 X107.968 Y70.674 E19.64247
G1 X109.816 Y72.434 E19.72735
G1 X111.681 Y74.114 E19.81084
G1 X113.615 Y75.758 E19.89527
G1 X115.606 Y77.358 E19.98022
G1 X117.608 Y78.874 E20.06374
G1 X119.655 Y80.335 E20.14739
G1 X121.768 Y81.756 E20.23208
G1 X123.896 Y83.1 E20.31579
G1 X126.073 Y84.391 E20.39998
G1 X128.288 Y85.62 E20.48423
G1 X130.524 Y86.78 E20.56801
G1 X132.805 Y87.883 E20.65228
G1 X135.106 Y88.917 E20.73618
G1 X137.392 Y89.868 E20.81853
G1 X139.806 Y90.791 E20.90449
G1 X142.221 Y91.638 E20.98961
G1 X144.609 Y92.4 E21.07298
G1 X147.03 Y93.097 E21.15678
G1 X149.476 Y93.728 E21.24079
G1 X151.892 Y94.279 E21.32321
G1 X154.444 Y94.785 E21.40975
G1 X156.922 Y95.203 E21.49333
G1 X159.431 Y95.555 E21.5776
G1 X160.739 Y95.708 E21.6214
G1 X160.99 Y95.741 E21.62982
G1 X162.201 Y95.973 E21.67083
G1 X162.415 Y96.027 E21.67817
G1 X162.678 Y96.097 E21.68722
G1 X162.97 Y96.179 E21.69731
G1 X168.657 Y97.815 E21.89413
G1 X169.462 Y98.058 E21.9221
G1 X170.331 Y98.362 E21.95272
G1 X171.137 Y98.725 E21.98212
G1 X171.935 Y99.125 E22.01181
G1 X177.183 Y101.843 E22.20838
G1 X177.912 Y102.233 E22.23588
G1 X178.703 Y102.703 E22.26648
G1 X179.44 Y103.23 E22.29661
G1 X180.16 Y103.794 E22.32703
G1 X184.854 Y107.607 E22.52818
G1 X185.537 Y108.177 E22.55776
G1 X186.217 Y108.797 E22.58837
G1 X186.84 Y109.474 E22.61897
G1 X187.454 Y110.202 E22.65065
G1 X187.579 Y110.354 E22.65719
G1 X191.408 Y115.069 E22.85921
G1 X191.808 Y115.576 E22.88069
G1 X192.346 Y116.323 E22.91131
G1 X192.809 Y117.098 E22.94133
G1 X193.211 Y117.841 E22.96943
G1 X193.3 Y118.01 E22.97578
G1 X196.033 Y123.288 E23.17347
G1 X196.365 Y123.95 E23.1981
G1 X196.742 Y124.79 E23.22873
G1 X197.037 Y125.637 E23.25856
G1 X197.286 Y126.465 E23.28731
G1 X198.88 Y132.01 E23.47921
G1 X199.069 Y132.704 E23.50313
G1 X199.272 Y133.602 E23.53376
G1 X199.363 Y134.204 E23.55401
G1 X199.39 Y134.425 E23.56141
G1 X199.458 Y135.074 E23.58311
G1 X199.949 Y140.437 E23.76223
G1 X200.011 Y141.219 E23.78833
G1 X200.044 Y142.139 E23.81894
G1 X200.017 Y142.804 E23.84108
G1 X199.937 Y143.927 E23.87853
G1 X199.92 Y144.142 E23.8857
G1 X199.475 Y148.993 E24.04772
G1 X199.382 Y149.884 E24.07752
G1 X199.246 Y150.795 E24.10815
G1 X199.117 Y151.372 E24.12782
G1 X199.066 Y151.574 E24.13475
G1 X199.003 Y151.814 E24.143
G1 X198.898 Y152.19 E24.15599
G1 X197.229 Y157.99 E24.35672
G1 X197.029 Y158.648 E24.3796
G1 X196.723 Y159.516 E24.41021
G1 X196.368 Y160.305 E24.43898
G1 X196.059 Y160.923 E24.46196
G1 X193.148 Y166.544 E24.6725
G1 X192.864 Y167.074 E24.6925
G1 X192.394 Y167.865 E24.7231
G1 X191.862 Y168.608 E24.7535
G1 X191.299 Y169.326 E24.78384
G1 X191.185 Y169.469 E24.78993
G1 X187.393 Y174.135 E24.98991
G1 X186.921 Y174.7 E25.01439
G1 X186.301 Y175.38 E25.045
G1 X185.622 Y176.005 E25.07569
G1 X184.886 Y176.626 E25.10772
G1 X184.733 Y176.753 E25.11434
G1 X180.191 Y180.442 E25.30895
G1 X179.523 Y180.971 E25.33729
G1 X178.777 Y181.51 E25.3679
G1 X177.992 Y181.98 E25.39834
G1 X177.221 Y182.397 E25.42749
G1 X177.053 Y182.486 E25.43381
G1 X171.88 Y185.165 E25.62757
G1 X171.131 Y185.54 E25.65543
G1 X170.291 Y185.916 E25.68604
G1 X169.466 Y186.203 E25.71509
G1 X168.77 Y186.414 E25.73928
G1 X163.078 Y188.051 E25.93627
G1 X162.383 Y188.24 E25.96023
G1 X161.485 Y188.442 E25.99084
G1 X160.916 Y188.529 E26.00999
G1 X160.652 Y188.562 E26.01884
G1 X160.392 Y188.591 E26.02754
G1 X160.127 Y188.618 E26.0364
G1 X154.653 Y189.121 E26.21923
G1 X153.853 Y189.183 E26.24592
G1 X152.933 Y189.214 E26.27654
G1 X152.286 Y189.188 E26.29807
G1 X151.186 Y189.11 E26.33475
G1 X150.966 Y189.093 E26.34209
G1 X146.014 Y188.638 E26.50749
G1 X145.179 Y188.549 E26.53542
G1 X144.269 Y188.41 E26.56603
G1 X143.708 Y188.284 E26.58516
G1 X143.262 Y188.169 E26.60048
G1 X142.963 Y188.086 E26.6108
G1 X137.111 Y186.402 E26.81334
G1 X136.454 Y186.203 E26.83617
G1 X135.586 Y185.898 E26.86677
G1 X134.78 Y185.536 E26.89615
G1 X134.161 Y185.226 E26.91918
G1 X128.542 Y182.315 E27.12966
G1 X128.009 Y182.029 E27.14978
G1 X127.218 Y181.559 E27.18038
G1 X126.478 Y181.028 E27.21067
G1 X125.622 Y180.355 E27.24689
G1 X121.068 Y176.655 E27.44205
G1 X120.384 Y176.084 E27.47168
G1 X119.704 Y175.464 E27.50229
G1 X119.079 Y174.785 E27.53298
G1 X118.478 Y174.072 E27.564
G1 X118.356 Y173.924 E27.57038
G1 X115.274 Y170.13 E27.73296
G1 X113.602 Y168.13 E27.81966
G1 X111.945 Y166.26 E27.90276
G1 X110.184 Y164.38 E27.98844
G1 X108.434 Y162.615 E28.07111
G1 X106.59 Y160.858 E28.15582
G1 X104.703 Y159.158 E28.2403
G1 X102.802 Y157.543 E28.32326
G1 X100.822 Y155.953 E28.40772
G1 X98.787 Y154.412 E28.49262
G1 X96.745 Y152.955 E28.57605
G1 X94.619 Y151.527 E28.66124
G1 X92.526 Y150.205 E28.74357
G1 X90.307 Y148.89 E28.82936
G1 X88.112 Y147.672 E28.91286
G1 X85.88 Y146.514 E28.99649
G1 X83.615 Y145.421 E29.08014
G1 X81.274 Y144.37 E29.16548
G1 X79.007 Y143.426 E29.24716
G1 X76.593 Y142.503 E29.33312
G1 X74.182 Y141.658 E29.41809
G1 X71.814 Y140.903 E29.50076
G1 X69.346 Y140.192 E29.58618
G1 X66.933 Y139.571 E29.66906
G1 X64.492 Y139.014 E29.75233
G1 X61.962 Y138.512 E29.83812
G1 X59.498 Y138.096 E29.92123
G1 X56.946 Y137.739 E30.00694
G1 X55.805 Y137.607 E30.04514
G1 X55.419 Y137.557 E30.05809
G1 X54.177 Y137.317 E30.10016
G1 X53.775 Y137.213 E30.11397
G1 X53.453 Y137.123 E30.12509
